<?xml version="1.0" encoding="UTF-8"?>
<map version="1.10" tiledversion="1.11.2" orientation="orthogonal" renderorder="right-down" width="50" height="40" tilewidth="32" tileheight="32" infinite="0" nextlayerid="6" nextobjectid="1">
 <properties>
  <property name="name" value="Test Forest"/>
  <property name="pvp_enabled" type="bool" value="false"/>
  <property name="up" value="Town.tmx"/>
 </properties>
 <tileset firstgid="1" source="Meta.tsx"/>
 <tileset firstgid="17" source="Terrain.tsx"/>
 <layer id="5" name="Ground" width="50" height="40">
  <data encoding="csv">
38,20,20,20,39,36,36,22,52,52,52,23,38,39,37,83,84,85,18,18,18,18,18,51,52,52,23,36,36,36,36,36,36,36,36,38,39,36,36,36,36,38,20,20,20,39,36,36,36,38,
36,36,36,36,36,36,36,38,20,20,20,39,36,22,53,99,71,85,18,18,18,18,18,18,18,18,51,23,36,36,36,36,36,36,36,36,36,36,36,36,36,36,36,36,36,36,36,36,36,36,
36,36,36,36,36,36,36,22,52,52,52,52,52,53,18,18,83,85,18,18,18,18,18,18,18,18,18,51,23,36,36,36,36,36,36,36,36,36,36,36,36,36,36,36,36,36,36,36,36,36,
36,36,36,36,36,22,52,53,18,18,18,18,18,18,18,67,87,85,18,18,19,21,19,20,21,18,18,18,51,52,52,23,36,36,36,36,36,36,36,36,36,36,36,36,36,36,36,36,36,36,
36,36,36,22,52,53,18,18,18,18,18,18,18,18,67,87,70,101,18,18,35,38,39,36,38,21,18,18,18,18,18,35,36,36,36,36,22,52,52,23,36,36,36,36,36,36,36,36,36,36,
36,36,22,53,18,18,18,18,18,18,18,18,18,18,83,70,101,18,18,18,51,52,23,36,36,37,18,18,18,18,18,51,23,36,36,22,53,18,18,51,23,36,36,36,36,22,52,23,36,36,
36,22,53,18,18,18,19,21,18,18,18,18,18,18,83,86,69,18,67,69,18,18,51,23,36,38,21,18,18,18,18,18,35,36,36,37,18,18,18,18,51,52,23,36,22,53,18,51,23,36,
22,53,18,18,18,19,39,37,18,19,20,20,21,18,99,71,86,68,87,86,69,18,18,51,23,36,37,18,18,18,18,18,51,23,22,53,18,18,18,18,18,18,51,52,53,18,18,18,51,23,
37,18,18,18,19,39,36,38,20,39,36,36,38,21,18,99,71,84,84,84,86,69,18,18,51,23,37,18,18,18,18,18,18,51,53,18,18,18,18,18,18,18,18,18,18,18,18,18,18,35,
37,18,18,18,35,36,36,36,36,36,36,36,36,37,18,18,99,71,84,84,84,86,69,18,18,35,38,21,18,18,18,18,18,18,18,18,18,18,19,21,18,18,18,18,18,18,18,18,18,35,
53,18,18,18,35,36,36,22,52,52,23,36,36,37,18,18,18,83,84,84,70,100,102,69,18,51,52,53,18,18,18,18,18,18,18,18,18,19,39,38,20,20,21,18,18,18,18,18,18,51,
18,18,18,18,51,23,22,53,18,18,51,23,36,37,18,18,67,87,70,100,101,18,83,85,18,18,18,18,18,18,18,18,18,18,18,18,18,35,36,36,36,36,38,21,18,18,18,18,18,18,
18,18,18,18,18,51,53,18,18,18,18,51,52,53,67,68,87,70,101,18,18,18,83,86,69,18,18,18,18,18,18,18,18,18,18,18,18,51,23,36,36,36,36,37,18,18,18,18,18,18,
68,69,18,18,18,18,18,18,18,67,68,68,68,68,87,70,100,101,19,20,21,18,99,71,85,18,18,18,67,68,68,68,68,69,18,18,18,18,51,52,52,52,52,53,18,18,18,18,18,67,
71,86,68,69,18,18,18,67,68,87,70,100,71,70,100,101,18,19,39,22,53,18,18,83,86,69,18,67,87,84,84,84,84,86,68,69,18,18,18,18,18,18,18,18,18,18,18,67,68,87,
99,100,71,86,68,69,67,87,70,100,101,18,99,101,18,18,18,51,52,53,18,18,18,99,71,86,68,87,70,100,100,100,71,84,84,86,68,68,69,18,18,18,18,18,18,18,18,83,84,70,
18,18,99,100,71,86,87,70,101,18,18,18,18,18,18,18,18,18,18,18,18,18,18,18,99,100,100,100,101,18,18,18,99,71,70,100,100,71,86,68,68,68,68,68,68,68,68,87,70,101,
20,21,18,18,99,100,100,101,18,18,18,18,18,19,20,20,21,18,18,18,18,18,18,19,20,20,20,21,18,18,18,18,18,83,85,18,18,99,100,100,100,100,100,100,100,100,100,100,101,18,
36,38,21,18,18,18,18,18,18,18,19,20,20,39,36,36,38,21,18,18,18,19,20,39,36,36,36,38,21,18,18,18,18,83,85,18,18,18,18,18,18,18,18,18,18,18,18,18,18,18,
36,36,38,20,21,18,18,18,19,20,39,36,36,36,36,36,36,38,20,20,20,39,36,36,36,36,36,36,38,21,18,18,67,87,85,18,18,18,18,18,18,18,18,18,18,18,18,18,18,19,
36,36,36,36,38,20,20,20,39,36,36,36,36,36,36,36,36,36,36,36,36,36,36,36,36,36,22,52,52,53,18,67,87,70,101,18,18,18,18,18,18,18,18,18,18,18,18,19,20,36,
36,36,36,36,36,36,36,36,36,36,36,36,36,36,36,36,36,36,36,36,36,36,36,22,52,52,53,18,67,68,68,87,70,101,18,18,19,20,20,20,20,21,18,18,19,20,20,39,36,369,
36,36,36,36,36,36,36,36,36,36,36,22,52,52,52,23,36,36,36,36,36,22,52,53,18,18,67,68,87,70,100,100,101,18,19,20,39,36,36,36,36,38,20,20,39,36,36,354,354,370,
36,36,36,36,22,52,52,52,52,52,52,53,18,18,18,51,23,36,36,22,52,53,18,18,18,18,83,70,100,101,18,18,18,18,35,36,36,36,36,36,36,36,36,36,36,353,370,370,370,19,
36,36,36,22,53,18,18,18,18,18,18,18,18,18,18,18,51,52,52,53,18,18,18,18,18,67,87,85,18,18,18,18,18,19,39,36,36,36,36,36,36,36,354,354,370,370,370,19,20,39,
36,36,22,53,18,18,18,18,18,18,18,18,18,18,18,18,18,18,18,18,18,18,18,18,18,83,70,101,18,18,18,18,19,39,36,36,36,36,36,36,36,369,370,370,370,370,19,39,36,36,
36,36,37,18,18,18,18,19,20,20,21,18,18,18,18,18,18,18,67,69,18,18,18,18,18,83,85,18,18,18,18,18,35,36,36,36,36,36,36,36,36,388,386,370,370,370,51,52,52,52,
36,22,53,18,18,18,19,39,36,36,38,21,18,18,18,18,18,67,87,86,68,68,69,18,18,83,85,18,18,18,18,18,51,23,36,36,36,36,36,22,52,404,402,388,386,386,386,386,386,386,
36,37,18,18,19,20,39,36,36,36,36,38,21,18,18,18,18,99,71,84,84,70,101,18,18,83,85,18,18,18,18,18,18,51,52,23,36,36,36,37,18,420,418,404,402,402,402,402,402,402,
36,37,18,18,51,52,52,23,36,36,36,36,38,20,21,18,18,18,99,71,84,85,18,18,18,83,86,69,18,18,18,18,18,18,18,51,52,23,36,37,18,18,18,420,418,418,418,418,418,418,
36,37,18,18,18,18,18,51,23,36,36,36,36,36,38,20,20,21,18,99,100,101,18,18,18,99,71,86,68,68,69,18,18,18,18,18,18,51,23,38,21,18,18,18,83,84,85,18,18,18,
22,53,18,18,18,18,18,18,51,23,36,36,36,36,36,36,36,38,21,18,18,18,18,18,18,18,99,100,100,71,86,68,69,18,18,18,18,18,51,23,37,18,18,18,83,70,101,18,18,19,
37,18,18,18,18,18,18,18,18,51,52,52,23,36,36,36,36,36,37,18,18,18,18,18,18,18,18,18,18,99,100,71,86,69,18,18,18,18,18,51,53,18,67,68,87,85,19,20,20,39,
38,21,18,18,18,18,18,18,18,18,18,18,51,52,52,52,52,52,53,18,18,18,18,18,18,18,18,18,18,18,18,99,71,86,69,18,18,18,18,18,18,67,87,70,100,101,35,36,36,36,
36,38,20,21,18,18,18,18,18,18,18,18,18,18,18,18,18,18,18,18,18,18,18,18,18,18,18,18,18,18,18,18,99,71,86,69,18,18,18,18,18,99,100,101,18,19,39,36,36,36,
36,36,36,38,20,20,20,21,18,18,18,18,18,18,18,18,18,18,18,18,18,18,18,18,18,18,18,18,18,18,18,18,18,99,71,85,18,18,18,18,18,18,19,20,20,39,36,36,36,36,
36,36,36,36,36,36,36,38,20,21,18,18,18,18,18,18,18,18,18,19,20,20,20,20,20,20,21,18,18,18,18,18,18,18,83,85,18,18,18,19,20,20,39,36,36,36,36,36,36,36,
36,36,36,36,36,36,36,36,36,38,20,21,18,18,18,18,18,19,20,39,36,36,36,36,36,36,38,20,21,18,18,18,18,18,83,85,18,18,18,35,36,36,36,36,36,36,36,36,36,36,
36,36,36,36,36,36,36,36,36,36,36,38,21,18,18,18,19,39,36,36,36,36,36,36,36,36,36,36,37,18,18,18,18,67,87,85,18,18,19,39,36,36,36,36,36,36,36,36,36,36,
36,36,36,36,36,36,36,36,36,36,36,36,38,20,20,20,39,36,36,36,36,36,36,36,36,36,36,36,38,21,18,18,67,87,84,85,18,18,35,36,36,36,36,36,36,36,36,36,36,36
</data>
 </layer>
 <layer id="2" name="Ground Details" width="50" height="40">
  <data encoding="csv">
0,95,96,94,0,0,0,0,0,95,96,0,0,95,96,0,0,0,0,95,96,0,0,95,96,0,93,0,95,96,95,96,95,96,95,96,95,96,93,95,96,95,96,95,96,95,96,95,96,95,
76,0,0,0,0,95,96,95,96,93,248,95,96,0,92,0,0,0,0,0,95,96,93,0,92,0,0,0,0,92,0,95,96,95,96,95,96,92,0,0,95,96,95,96,95,96,95,96,95,96,
0,0,95,96,93,0,95,96,0,0,0,0,95,96,0,0,0,0,0,0,0,0,0,0,0,95,96,95,96,0,95,96,92,0,95,96,0,0,0,95,96,95,96,95,96,92,0,95,96,95,
95,96,0,0,0,91,0,0,94,0,0,0,0,0,0,0,0,0,0,0,0,0,0,0,0,0,95,96,0,93,0,0,0,0,0,248,0,0,0,0,95,96,91,0,0,0,0,0,95,96,
0,95,96,95,96,0,32,0,0,0,0,0,249,0,0,0,0,0,0,0,0,95,96,248,0,0,0,93,0,95,96,0,0,0,0,0,0,0,0,0,0,0,0,0,0,0,0,92,0,95,
93,0,0,0,0,0,0,0,0,249,0,250,0,0,0,0,0,0,0,0,0,0,0,0,0,0,0,0,95,96,0,0,0,0,93,0,0,0,0,0,0,0,248,0,93,0,0,0,95,96,
248,0,0,0,0,0,0,0,0,0,0,0,0,0,0,0,0,0,0,0,0,0,0,0,93,0,0,0,92,0,95,96,0,0,0,0,0,0,0,0,0,0,0,0,0,0,0,0,0,95,
0,0,94,0,0,0,0,0,0,0,0,0,0,0,0,0,0,0,0,0,0,0,0,0,95,96,0,0,0,95,96,95,96,0,0,0,0,250,0,0,0,0,0,0,0,0,0,0,0,0,
0,0,0,0,0,0,0,0,0,0,95,96,0,0,0,0,0,0,0,0,0,0,0,0,0,0,0,0,95,96,95,96,0,0,0,0,0,0,0,0,0,0,0,0,0,0,0,0,0,0,
0,0,0,0,0,0,0,93,0,248,0,0,0,0,0,0,0,0,0,0,0,0,0,0,0,0,248,0,0,93,0,0,0,0,0,0,0,0,0,0,0,0,0,0,0,0,249,0,0,0,
0,0,0,0,0,0,0,0,0,0,0,0,92,0,0,249,0,0,0,0,0,0,0,0,0,0,0,0,0,0,95,96,0,0,0,249,0,0,0,0,0,0,0,0,0,0,0,94,0,0,
0,0,249,0,0,0,0,0,0,0,0,0,0,0,0,0,0,0,0,0,0,0,0,0,0,0,0,0,0,95,96,0,0,249,0,0,0,0,0,95,96,0,0,0,0,0,0,0,0,0,
0,0,0,0,0,0,0,0,0,0,0,0,0,0,0,0,0,0,0,0,0,0,0,0,0,0,250,0,0,0,0,0,0,0,0,0,0,0,0,0,63,93,0,0,0,0,0,0,0,0,
0,0,0,0,0,0,0,0,0,0,0,0,0,0,0,0,0,0,0,93,0,0,0,0,0,0,0,0,0,0,0,0,0,0,0,0,0,0,0,0,0,0,0,0,0,249,0,0,0,0,
0,0,0,0,0,0,0,0,0,0,0,0,0,0,0,0,0,0,0,0,0,0,0,0,0,0,0,0,0,0,0,0,0,0,0,0,0,0,0,0,0,0,0,0,0,0,0,0,0,0,
0,0,0,0,0,0,0,0,0,0,0,94,0,0,0,0,0,0,0,0,76,0,0,0,0,0,0,0,0,0,0,0,0,0,0,0,0,0,0,0,0,0,0,0,0,0,0,0,0,0,
0,0,0,0,0,0,0,0,0,0,0,0,0,0,0,0,0,0,0,0,0,249,0,0,0,0,0,0,0,0,0,0,0,0,0,0,0,0,0,0,0,0,0,0,0,0,0,0,0,0,
0,0,0,0,0,0,0,0,0,249,0,0,0,0,0,0,95,96,0,0,0,0,0,0,0,93,0,0,0,0,0,0,0,0,0,0,0,0,0,0,0,0,0,0,0,0,0,0,0,0,
95,96,0,0,0,93,0,0,0,0,0,0,0,95,96,0,0,95,96,0,0,0,0,0,0,92,0,95,96,0,0,0,0,0,0,0,0,0,0,0,0,0,0,0,0,0,0,0,0,0,
0,95,96,0,0,92,95,96,0,0,95,96,0,0,95,96,95,96,0,95,96,93,91,95,96,0,95,96,95,96,0,0,0,0,0,0,94,0,249,0,0,0,0,0,0,249,0,0,0,0,
93,0,93,95,96,95,96,95,96,93,0,0,95,96,0,95,96,0,93,0,95,96,95,96,92,95,96,0,0,0,0,0,0,0,0,0,0,0,0,0,0,0,0,0,0,0,0,0,0,0,
95,96,95,96,95,96,93,92,0,95,96,95,96,0,95,96,110,95,96,95,96,95,96,0,0,0,0,0,0,0,0,0,0,0,0,0,0,0,0,0,0,0,0,0,0,0,0,0,0,0,
96,95,96,95,96,0,0,0,0,0,91,0,0,0,0,0,0,0,95,96,248,0,0,0,0,0,0,0,0,0,0,0,0,0,0,0,0,0,0,0,0,0,0,0,0,0,0,0,0,0,
95,96,93,0,0,0,0,0,0,0,0,0,0,0,0,0,0,92,0,0,0,0,0,0,0,0,0,0,0,0,0,0,0,0,0,0,0,0,0,248,0,0,0,0,93,354,0,0,0,0,
96,248,0,0,0,0,0,0,0,0,0,0,0,249,0,0,0,0,0,0,0,0,0,249,0,0,0,0,0,0,0,0,0,0,0,95,96,0,0,0,95,96,0,0,0,0,0,0,0,0,
92,0,0,0,0,0,0,0,0,0,0,0,0,0,0,0,0,0,0,0,0,0,250,0,0,0,0,0,0,0,249,0,0,0,0,0,0,0,95,96,93,0,0,0,0,0,0,95,96,0,
110,0,0,0,0,0,0,0,0,0,0,0,0,0,0,249,0,0,0,0,0,0,0,0,0,0,0,0,0,0,0,0,0,0,91,0,0,95,96,95,96,0,0,0,0,0,0,0,0,0,
96,0,0,0,0,0,0,0,0,0,0,0,0,0,0,0,0,0,0,75,0,0,0,0,0,0,0,0,0,250,0,0,0,0,0,0,95,96,0,0,0,0,0,0,0,0,0,0,0,0,
95,96,0,0,0,0,0,95,96,0,0,0,0,0,0,0,0,0,0,76,0,75,0,0,0,0,0,0,0,0,0,0,0,0,0,0,0,93,0,0,0,0,0,0,0,0,0,30,0,0,
96,0,0,0,0,0,0,0,0,0,0,0,0,0,0,0,0,0,0,0,0,0,0,0,0,0,0,0,0,0,0,0,0,0,0,0,0,0,0,0,0,0,0,0,0,232,62,46,0,0,
95,96,0,0,0,0,0,0,0,63,93,92,0,0,0,0,0,0,0,0,0,0,0,249,0,0,0,0,0,0,0,0,0,0,0,0,0,0,0,0,0,0,0,0,0,0,127,0,95,96,
96,0,0,250,0,249,0,0,0,0,92,0,248,0,0,0,0,0,0,0,0,0,0,0,0,0,0,0,0,0,0,0,0,0,0,249,0,0,0,0,0,0,0,0,0,0,0,0,0,95,
92,0,0,0,0,0,0,0,0,0,0,0,0,0,95,96,0,0,0,0,0,0,0,0,0,0,0,0,0,0,0,0,0,0,0,0,0,0,0,0,0,0,0,0,0,0,0,0,95,96,
109,0,0,0,0,0,0,0,0,0,0,0,0,0,0,0,0,0,0,0,0,0,0,0,0,0,0,0,0,0,0,0,0,0,0,0,0,250,0,0,0,0,0,0,0,0,0,0,0,95,
96,0,0,0,0,0,0,0,0,0,249,0,0,0,0,0,0,0,0,0,0,249,0,0,0,0,0,0,249,0,0,0,0,0,0,0,0,0,0,0,0,0,0,0,0,0,0,248,95,96,
95,96,0,93,0,0,0,0,0,0,0,0,0,0,0,0,0,0,0,0,0,0,0,0,0,0,0,0,0,0,0,0,0,0,0,0,0,0,0,0,0,0,0,0,0,0,0,0,92,93,
96,0,0,0,0,248,0,0,0,0,0,0,0,0,250,0,0,0,0,0,0,0,0,0,0,0,0,0,0,0,0,0,0,0,0,0,0,0,0,0,0,0,0,0,0,0,0,95,96,0,
95,96,0,0,0,0,0,0,0,0,0,0,0,0,0,0,0,0,0,0,0,0,0,0,0,0,0,0,0,0,0,0,0,0,0,0,0,0,0,0,0,0,248,0,0,0,0,91,95,96,
96,95,96,95,96,0,91,95,96,0,0,0,0,0,0,0,0,0,0,0,95,96,0,0,95,96,0,0,0,0,0,0,0,0,0,0,0,0,0,0,0,0,0,0,95,96,92,95,96,95,
95,96,95,96,95,96,92,0,95,96,95,96,0,0,110,109,0,95,96,95,96,0,93,95,96,95,96,0,0,0,0,0,0,0,0,0,0,0,0,0,95,96,92,95,96,95,96,93,95,96
</data>
 </layer>
 <layer id="3" name="Sky" width="50" height="40">
  <properties>
   <property name="draw_over_actors" type="bool" value="true"/>
  </properties>
  <data encoding="csv">
0,0,0,0,0,79,80,79,80,77,0,79,80,0,0,0,0,0,0,0,79,80,77,0,0,0,0,0,0,0,0,79,80,79,80,79,80,0,0,0,79,80,79,80,79,80,79,80,79,80,
0,0,79,80,77,0,79,80,0,0,0,0,79,80,0,0,0,0,0,0,0,0,0,0,0,79,80,79,80,0,79,80,0,0,79,80,0,0,0,79,80,79,80,79,80,0,0,79,80,79,
79,80,0,0,0,0,0,0,78,0,0,0,0,0,0,0,0,0,0,0,0,0,0,0,0,0,79,80,0,77,0,0,0,0,0,0,0,0,0,0,79,80,0,0,0,0,0,0,79,80,
0,79,80,79,80,0,0,0,0,0,0,0,0,0,0,0,0,0,0,0,0,79,80,0,0,0,0,77,0,79,80,0,0,0,0,0,0,0,0,0,0,0,0,0,0,0,0,0,0,79,
77,0,0,0,0,0,0,0,0,0,0,0,0,0,0,0,0,0,0,0,0,0,0,0,0,0,0,0,79,80,0,0,0,0,77,0,0,0,0,0,0,0,0,0,77,0,0,0,79,80,
0,0,0,0,0,0,0,0,0,0,0,0,0,0,0,0,0,0,0,0,0,0,0,0,77,0,0,0,0,0,79,80,0,0,0,0,0,0,0,0,0,0,0,0,0,0,0,0,0,79,
0,0,78,0,0,0,0,0,0,0,0,0,0,0,0,0,0,0,0,0,0,0,0,0,79,80,0,0,0,79,80,79,80,0,0,0,0,0,0,0,0,0,0,0,0,0,0,0,0,0,
0,0,0,0,0,0,0,0,0,0,79,80,0,0,0,0,0,0,0,0,0,0,0,0,0,0,0,0,79,80,79,80,0,0,0,0,0,0,0,0,0,0,0,0,0,0,0,0,0,0,
0,0,0,0,0,0,0,77,0,0,0,0,0,0,0,0,0,0,0,0,0,0,0,0,0,0,0,0,0,77,0,0,0,0,0,0,0,0,0,0,0,0,0,0,0,0,0,0,0,0,
0,0,0,0,0,0,0,0,0,0,0,0,0,0,0,0,0,0,0,0,0,0,0,0,0,0,0,0,0,0,79,80,0,0,0,0,0,0,0,0,0,0,0,0,0,0,0,78,0,0,
0,0,0,0,0,0,0,0,0,0,0,0,0,0,0,0,0,0,0,0,0,0,0,0,0,0,0,0,0,79,80,0,0,0,0,0,0,0,0,79,80,0,0,0,0,0,0,0,0,0,
0,0,0,0,0,0,0,0,0,0,0,0,0,0,0,0,0,0,0,0,0,0,0,0,0,0,0,0,0,0,0,0,0,0,0,0,0,0,0,0,0,77,0,0,0,0,0,0,0,0,
0,0,0,0,0,0,0,0,0,0,0,0,0,0,0,0,0,0,0,77,0,0,0,0,0,0,0,0,0,0,0,0,0,0,0,0,0,0,0,0,0,0,0,0,0,0,0,0,0,0,
0,0,0,0,0,0,0,0,0,0,0,0,0,0,0,0,0,0,0,0,0,0,0,0,0,0,0,0,0,0,0,0,0,0,0,0,0,0,0,0,0,0,0,0,0,0,0,0,0,0,
0,0,0,0,0,0,0,0,0,0,0,78,0,0,0,0,0,0,0,0,0,0,0,0,0,0,0,0,0,0,0,0,0,0,0,0,0,0,0,0,0,0,0,0,0,0,0,0,0,0,
0,0,0,0,0,0,0,0,0,0,0,0,0,0,0,0,0,0,0,0,0,0,0,0,0,0,0,0,0,0,0,0,0,0,0,0,0,0,0,0,0,0,0,0,0,0,0,0,0,0,
0,0,0,0,0,0,0,0,0,0,0,0,0,0,0,0,79,80,0,0,0,0,0,0,0,77,0,0,0,0,0,0,0,0,0,0,0,0,0,0,0,0,0,0,0,0,0,0,0,0,
79,80,0,0,0,77,0,0,0,0,0,0,0,79,80,0,0,79,80,0,0,0,0,0,0,0,0,79,80,0,0,0,0,0,0,0,0,0,0,0,0,0,0,0,0,0,0,0,0,0,
0,79,80,0,0,0,79,80,0,0,79,80,0,0,79,80,79,80,0,79,80,77,0,79,80,0,79,80,79,80,0,0,0,0,0,0,78,0,0,0,0,0,0,0,0,0,0,0,0,0,
77,0,77,79,80,79,80,79,80,77,0,0,79,80,0,79,80,0,77,0,79,80,79,80,0,79,80,0,0,0,0,0,0,0,0,0,0,0,0,0,0,0,0,0,0,0,0,0,0,0,
79,80,79,80,79,80,77,0,0,79,80,79,80,0,79,80,0,79,80,79,80,79,80,0,0,0,0,0,0,0,0,0,0,0,0,0,0,0,0,0,0,0,0,0,0,0,0,0,0,372,
80,79,80,79,80,0,0,0,0,0,0,0,0,0,0,0,0,0,79,80,0,0,0,0,0,0,0,0,0,0,0,0,0,0,0,0,0,0,0,0,0,0,0,0,0,0,0,0,0,0,
79,80,77,0,0,0,0,0,0,0,0,0,0,0,0,0,0,0,0,0,0,0,0,0,0,0,0,0,0,0,0,0,0,0,0,0,0,0,109,0,0,0,0,0,77,0,372,0,0,0,
80,0,0,0,0,0,0,0,0,0,0,0,0,0,0,0,0,0,0,0,0,0,0,0,0,0,0,0,0,0,0,0,0,0,0,79,80,0,0,0,79,80,0,0,372,0,0,0,0,0,
0,0,0,0,0,0,0,0,0,0,0,0,0,0,0,0,0,0,0,0,0,0,0,0,0,0,0,0,0,0,0,0,0,0,0,0,0,0,79,80,77,372,0,0,0,0,0,79,80,0,
0,0,0,0,0,0,0,0,0,0,0,0,0,0,0,0,0,0,0,0,0,0,0,0,0,0,0,0,0,0,0,0,0,0,0,0,0,79,80,79,80,0,0,0,0,0,0,0,0,0,
80,0,0,0,0,0,0,0,0,0,0,0,0,0,0,0,0,0,0,0,0,0,0,0,0,0,0,0,0,0,0,0,0,0,0,0,79,80,0,0,0,0,0,0,0,0,0,0,0,0,
79,80,0,0,0,0,0,79,80,0,0,0,0,0,0,0,0,0,0,0,0,0,0,0,0,0,0,0,0,0,0,0,0,0,0,0,0,77,110,0,0,0,0,0,0,0,0,0,0,0,
80,0,0,0,0,0,0,0,0,0,0,0,0,0,0,0,0,0,0,0,0,0,0,0,0,0,0,0,0,0,0,0,0,0,0,0,0,0,0,0,0,0,0,0,0,0,0,0,0,0,
79,80,0,0,0,0,0,0,0,0,77,0,0,0,0,0,0,0,0,0,0,0,0,0,0,0,0,0,0,0,0,0,0,0,0,0,0,0,109,0,0,0,0,0,0,0,0,0,79,80,
80,0,0,0,0,0,0,0,0,0,0,0,0,0,0,0,0,0,0,0,0,0,0,0,0,0,0,0,0,0,0,0,0,0,0,0,0,0,0,0,0,0,0,0,0,0,0,0,0,79,
0,0,0,0,0,0,0,0,0,0,0,0,0,0,79,80,0,0,0,0,0,0,0,0,0,0,0,0,0,0,0,0,0,0,0,0,0,0,0,0,0,0,0,0,0,0,0,0,79,80,
0,0,0,0,0,0,0,0,0,0,0,0,0,0,0,0,0,0,0,0,0,0,0,0,0,0,0,0,0,0,0,0,0,0,0,0,0,0,0,0,0,0,0,0,0,0,0,0,0,79,
80,0,0,0,0,0,0,0,0,0,0,0,0,0,0,0,0,0,0,0,0,0,0,0,0,0,0,0,0,0,0,0,0,0,0,0,0,0,0,0,0,0,0,0,0,0,0,0,79,80,
79,80,0,77,0,0,0,0,0,0,0,0,0,0,0,0,0,0,0,0,0,0,0,0,0,0,0,0,0,0,0,0,0,0,0,0,0,0,0,0,0,0,0,0,0,0,0,0,0,77,
80,0,0,0,0,0,0,0,0,0,0,0,0,0,0,0,0,0,0,0,0,0,0,0,0,0,0,0,0,0,0,0,0,0,0,0,0,0,0,0,0,0,0,0,0,109,0,79,80,0,
79,80,0,0,0,0,0,0,0,0,0,0,0,0,0,0,0,0,0,0,0,0,0,0,0,0,0,0,0,0,0,0,0,0,0,0,0,0,0,0,0,0,0,0,0,0,0,0,79,80,
80,79,80,79,80,0,0,79,80,0,0,0,0,0,0,0,0,0,0,0,79,80,0,0,79,80,0,0,0,0,0,0,0,0,0,0,0,0,0,0,0,0,0,0,79,80,0,79,80,79,
79,80,79,80,79,80,0,0,79,80,79,80,0,0,0,0,0,79,80,79,80,0,77,79,80,79,80,0,0,0,0,0,0,0,0,0,0,0,0,0,79,80,0,79,80,79,80,77,79,80,
77,79,80,79,80,79,80,79,80,79,80,79,80,77,0,0,79,80,79,80,79,80,77,0,79,80,79,80,77,0,0,0,0,0,0,0,0,0,0,79,80,0,0,0,79,80,79,80,0,79
</data>
 </layer>
 <layer id="4" name="Meta" width="50" height="40" visible="0">
  <data encoding="csv">
1,1,1,1,1,1,1,1,1,1,1,1,1,1,1,0,0,0,0,1,1,1,1,1,1,1,1,1,1,1,1,1,1,1,1,1,1,1,1,1,1,1,1,1,1,1,1,1,1,1,
1,1,1,1,1,1,1,1,1,1,0,1,1,1,1,0,0,0,0,0,1,1,1,0,1,1,1,1,1,1,1,1,1,1,1,1,1,1,0,0,1,1,1,1,1,1,1,1,1,1,
1,1,1,1,1,1,1,1,0,0,0,0,1,1,0,0,0,0,0,0,0,0,0,0,0,1,1,1,1,1,1,1,1,0,1,1,0,0,0,1,1,1,1,1,1,1,0,1,1,1,
1,1,1,1,1,1,0,0,1,0,0,0,0,0,0,0,0,0,0,0,0,0,0,0,0,0,1,1,1,1,0,0,0,0,0,0,0,0,0,0,1,1,1,0,0,0,0,0,1,1,
1,1,1,1,1,0,1,0,0,0,0,0,0,0,0,0,0,0,0,0,0,1,1,0,0,0,0,1,1,1,1,0,0,0,0,0,0,0,0,0,0,0,0,0,0,0,0,1,1,1,
1,0,0,0,0,0,0,0,0,0,0,0,0,0,0,0,0,0,0,0,0,0,0,0,0,0,0,0,1,1,0,0,0,0,1,0,0,0,0,0,0,0,0,0,1,0,0,0,1,1,
0,0,0,0,0,0,0,0,0,0,0,0,0,0,0,0,0,0,0,0,0,0,0,0,1,0,0,0,1,1,1,1,0,0,0,0,0,0,0,0,0,0,0,0,0,0,0,0,0,1,
0,0,1,0,0,0,0,0,0,0,0,0,0,0,0,0,0,0,0,0,0,0,0,0,1,1,0,0,0,1,1,1,1,0,0,0,0,0,0,0,0,0,0,0,0,0,0,0,0,0,
0,0,0,0,0,0,0,0,0,0,1,1,0,0,0,0,0,0,0,0,0,0,0,0,0,0,0,0,1,1,1,1,0,0,0,0,0,0,0,0,0,0,0,0,0,0,0,0,0,0,
0,0,0,0,0,0,0,1,0,0,0,0,0,0,0,0,0,0,0,0,0,0,0,0,0,0,0,0,0,1,0,0,0,0,0,0,0,0,0,0,0,0,0,0,0,0,0,0,0,0,
0,0,0,0,0,0,0,0,0,0,0,0,1,0,0,0,0,0,0,0,0,0,0,0,0,0,0,0,0,0,1,1,0,0,0,0,0,0,0,0,0,0,0,0,0,0,0,1,0,0,
0,0,0,0,0,0,0,0,0,0,0,0,0,0,0,0,0,0,0,0,0,0,0,0,0,0,0,0,0,1,1,0,0,0,0,0,0,0,0,1,1,0,0,0,0,0,0,0,0,0,
0,0,0,0,0,0,0,0,0,0,0,0,0,0,0,0,0,0,0,0,0,0,0,0,0,0,0,0,0,0,0,0,0,0,0,0,0,0,0,0,1,1,0,0,0,0,0,0,0,0,
0,0,0,0,0,0,0,0,0,0,0,0,0,0,0,0,0,0,0,1,0,0,0,0,0,0,0,0,0,0,0,0,0,0,0,0,0,0,0,0,0,0,0,0,0,0,0,0,0,0,
0,0,0,0,0,0,0,0,0,0,0,0,0,0,0,0,0,0,0,0,0,0,0,0,0,0,0,0,0,0,0,0,0,0,0,0,0,0,0,0,0,0,0,0,0,0,0,0,0,0,
0,0,0,0,0,0,0,0,0,0,0,1,0,0,0,0,0,0,0,0,1,0,0,0,0,0,0,0,0,0,0,0,0,0,0,0,0,0,0,0,0,0,0,0,0,0,0,0,0,0,
0,0,0,0,0,0,0,0,0,0,0,0,0,0,0,0,0,0,0,0,0,0,0,0,0,0,0,0,0,0,0,0,0,0,0,0,0,0,0,0,0,0,0,0,0,0,0,0,0,0,
0,0,0,0,0,0,0,0,0,0,0,0,0,0,0,0,1,1,0,0,0,0,0,0,0,1,0,0,0,0,0,0,0,0,0,0,0,0,0,0,0,0,0,0,0,0,0,0,0,0,
1,1,0,0,0,1,0,0,0,0,0,0,0,1,1,0,0,1,1,0,0,0,0,0,0,1,0,1,1,0,0,0,0,0,0,0,0,0,0,0,0,0,0,0,0,0,0,0,0,0,
1,1,1,0,0,1,1,1,0,0,1,1,0,0,1,1,1,1,1,1,1,1,1,1,1,1,1,1,1,1,0,0,0,0,0,0,1,0,0,0,0,0,0,0,0,0,0,0,0,0,
1,1,1,1,1,1,1,1,1,1,1,1,1,1,1,1,1,1,1,1,1,1,1,1,1,1,1,0,0,0,0,0,0,0,0,0,0,0,0,0,0,0,0,0,0,0,0,0,0,0,
1,1,1,1,1,1,1,1,0,1,1,1,1,0,1,1,1,1,1,1,1,1,1,0,0,0,0,0,0,0,0,0,0,0,0,0,0,0,0,0,0,0,0,0,0,0,0,0,0,1,
1,1,1,1,1,0,0,0,0,0,1,0,0,0,0,0,0,0,1,1,0,0,0,0,0,0,0,0,0,0,0,0,0,0,0,0,0,0,1,0,0,0,0,0,0,0,0,1,1,1,
1,1,1,0,0,0,0,0,0,0,0,0,0,0,0,0,0,1,0,0,0,0,0,0,0,0,0,0,0,0,0,0,0,0,0,0,0,0,0,0,0,0,0,0,1,1,1,1,1,1,
1,0,0,0,0,0,0,0,0,0,0,0,0,0,0,0,0,0,0,0,0,0,0,0,0,0,0,0,0,0,0,0,0,0,0,1,1,0,0,0,1,1,1,1,1,1,1,1,1,1,
1,0,0,0,0,0,0,0,0,0,0,0,0,0,0,0,0,0,0,0,0,0,0,0,0,0,0,0,0,0,0,0,0,0,0,0,0,0,1,1,1,1,1,1,1,1,1,1,1,1,
1,0,0,0,0,0,0,0,0,0,0,0,0,0,0,0,0,0,0,0,0,0,0,0,0,0,0,0,0,0,0,0,0,0,1,0,0,1,1,1,1,1,1,1,1,1,1,1,1,1,
1,0,0,0,0,0,0,0,0,0,0,0,0,0,0,0,0,0,0,1,0,0,0,0,0,0,0,0,0,0,0,0,0,0,0,0,1,1,1,0,0,1,1,1,1,1,1,1,1,1,
1,1,0,0,0,0,0,1,1,0,0,0,0,0,0,0,0,0,0,1,0,1,0,0,0,0,0,0,0,0,0,0,0,0,0,0,0,1,0,0,0,1,1,1,1,1,1,1,1,1,
1,0,0,0,0,0,0,0,0,0,0,0,0,0,0,0,0,0,0,0,0,0,0,0,0,0,0,0,0,0,0,0,0,0,0,0,0,0,1,0,0,0,0,1,1,0,1,1,1,1,
1,1,0,0,0,0,0,0,0,1,1,1,0,0,0,0,0,0,0,0,0,0,0,0,0,0,0,0,0,0,0,0,0,0,0,0,0,0,0,0,0,0,0,0,0,0,1,0,1,1,
1,0,0,0,0,0,0,0,0,0,1,0,0,0,0,0,0,0,0,0,0,0,0,0,0,0,0,0,0,0,0,0,0,0,0,0,0,0,0,0,0,0,0,0,0,0,0,0,0,1,
1,0,0,0,0,0,0,0,0,0,0,0,0,0,1,1,0,0,0,0,0,0,0,0,0,0,0,0,0,0,0,0,0,0,0,0,0,0,0,0,0,0,0,0,0,0,0,0,1,1,
1,0,0,0,0,0,0,0,0,0,0,0,0,0,0,0,0,0,0,0,0,0,0,0,0,0,0,0,0,0,0,0,0,0,0,0,0,0,0,0,0,0,0,0,0,0,0,0,0,1,
1,0,0,0,0,0,0,0,0,0,0,0,0,0,0,0,0,0,0,0,0,0,0,0,0,0,0,0,0,0,0,0,0,0,0,0,0,0,0,0,0,0,0,0,0,0,0,0,1,1,
1,1,0,1,0,0,0,0,0,0,0,0,0,0,0,0,0,0,0,0,0,0,0,0,0,0,0,0,0,0,0,0,0,0,0,0,0,0,0,0,0,0,0,0,0,1,0,0,1,1,
1,0,0,0,0,0,0,0,0,0,0,0,0,0,0,0,0,0,0,0,0,0,0,0,0,0,0,0,0,0,0,0,0,0,0,0,0,0,0,0,0,0,0,0,0,0,0,1,1,1,
1,1,0,0,0,0,0,0,0,0,0,0,0,0,0,0,0,0,0,0,0,0,0,0,0,0,0,0,0,0,0,0,0,0,0,0,0,0,0,0,0,0,0,0,0,0,0,1,1,1,
1,1,1,1,1,0,1,1,1,0,0,0,0,0,0,0,0,0,0,0,1,1,0,0,1,1,0,0,0,0,0,0,0,0,0,0,0,0,0,0,0,0,0,0,1,1,1,1,1,1,
1,1,1,1,1,1,1,1,1,1,1,1,1,1,1,1,1,1,1,1,1,1,1,1,1,1,1,0,0,0,0,0,0,0,0,0,0,0,0,0,1,1,1,1,1,1,1,1,1,1
</data>
 </layer>
</map>
