<?xml version="1.0" encoding="UTF-8"?>
<map version="1.10" tiledversion="1.11.2" orientation="orthogonal" renderorder="right-down" width="19" height="14" tilewidth="32" tileheight="32" infinite="0" nextlayerid="2" nextobjectid="1">
 <tileset firstgid="1" source="Terrain.tsx"/>
 <layer id="1" name="Ground" width="19" height="14">
  <data encoding="csv">
2,2,2,2,2,2,2,2,2,2,2,2,2,2,2,2,2,2,2,
2,2,2,2,2,2,2,2,2,2,2,2,2,2,2,2,2,2,2,
2,2,2,2,2,2,2,2,2,2,2,2,2,2,2,2,2,2,2,
2,2,2,2,2,2,2,2,2,2,2,2,2,2,2,2,2,2,2,
2,2,2,2,2,51,52,52,52,52,53,2,2,2,2,2,2,2,2,
2,2,51,52,52,71,68,98,68,68,70,52,52,53,2,2,2,2,2,
52,52,71,68,68,68,68,68,68,68,68,68,68,70,52,52,53,2,2,
68,68,68,68,54,84,84,84,84,84,84,84,55,68,68,68,70,52,52,
98,68,54,84,85,2,2,2,2,2,2,2,83,55,68,68,68,68,68,
84,84,85,2,2,2,2,2,2,2,2,2,2,83,84,84,55,68,98,
2,2,2,2,2,2,2,2,2,2,2,2,2,2,2,2,83,84,84,
2,2,2,2,2,2,2,2,2,2,2,2,2,2,2,2,2,2,2,
2,2,2,2,2,2,2,2,2,2,2,2,2,2,2,2,2,2,2,
2,2,2,2,2,2,2,2,2,2,2,2,2,2,2,2,2,2,2
</data>
 </layer>
</map>
