<?xml version="1.0" encoding="UTF-8"?>
<map version="1.10" tiledversion="1.11.2" orientation="orthogonal" renderorder="right-down" width="60" height="60" tilewidth="32" tileheight="32" infinite="0" nextlayerid="9" nextobjectid="10">
 <properties>
  <property name="down" value="Default.tmx"/>
  <property name="name" value="Village"/>
  <property name="pvp_enabled" type="bool" value="false"/>
 </properties>
 <tileset firstgid="1" source="Terrain.tsx"/>
 <tileset firstgid="513" source="Buildings.tsx"/>
 <tileset firstgid="769" source="Meta.tsx"/>
 <layer id="1" name="Ground" width="60" height="60">
  <data encoding="csv">
20,20,22,4,4,4,23,20,22,23,20,22,4,4,4,4,23,20,20,20,20,20,20,20,20,6,7,20,20,20,20,20,20,22,23,20,20,20,20,20,20,6,7,20,20,20,20,20,22,4,4,23,22,4,4,4,4,23,20,20,
20,20,20,20,20,20,6,36,7,20,20,20,20,20,20,20,20,20,20,6,36,7,519,520,520,520,520,520,520,520,520,520,520,520,520,520,520,520,520,520,520,520,520,520,520,520,520,521,7,20,20,20,20,20,20,20,20,20,20,20,
7,20,20,20,6,36,37,2,35,36,7,20,20,20,20,20,20,20,6,37,2,19,551,145,145,145,145,145,145,145,145,145,145,145,145,145,145,145,145,145,145,145,145,145,145,145,145,537,23,20,20,20,20,20,20,20,20,20,20,20,
35,36,36,36,37,2,2,2,2,2,35,7,20,20,20,20,20,6,37,2,2,35,551,145,553,568,568,568,568,568,568,568,568,568,568,568,568,568,568,568,568,568,568,568,568,584,145,553,20,20,20,20,20,20,20,20,20,20,20,20,
2,2,2,2,2,2,2,2,2,2,2,35,36,7,20,20,20,21,2,2,2,2,551,145,553,538,539,539,539,539,539,539,539,539,539,539,539,539,539,539,539,539,539,539,539,551,145,537,20,20,20,20,20,20,20,20,20,20,20,20,
52,52,52,52,52,53,2,2,2,2,2,2,2,35,7,20,20,22,5,2,51,52,551,145,553,241,274,274,274,274,289,274,274,274,274,274,242,539,539,539,539,539,539,539,539,551,145,553,36,7,20,20,20,20,20,20,20,20,20,20,
68,68,68,68,68,70,53,2,2,2,2,2,2,2,35,7,20,20,21,2,83,55,551,145,553,273,513,514,514,515,273,513,514,514,514,515,321,274,274,274,274,274,274,274,242,551,145,537,2,35,7,20,20,20,20,20,20,20,20,20,
84,84,84,84,55,68,70,52,52,52,52,53,2,2,2,19,20,20,21,2,2,67,551,145,553,273,529,530,530,531,306,529,530,530,530,531,306,513,514,514,516,514,514,515,273,551,145,553,2,2,35,7,20,20,20,20,20,20,20,20,
2,2,2,2,83,55,68,68,68,68,68,70,53,2,2,19,20,20,22,5,2,83,551,145,553,273,545,530,530,547,517,545,530,530,530,547,517,529,530,530,532,530,530,531,273,551,145,537,2,2,2,19,20,20,20,20,20,20,20,20,
4,5,2,2,2,83,84,84,55,68,68,68,70,53,2,35,36,7,20,22,5,2,551,145,553,273,161,161,161,161,533,177,161,161,161,161,533,545,546,546,548,546,546,547,273,551,145,553,53,2,2,35,7,20,6,36,7,20,20,20,
20,22,4,5,2,2,2,2,83,55,68,68,68,70,53,2,2,19,6,36,37,2,551,145,553,273,161,177,161,161,549,161,161,161,177,161,549,161,161,161,161,161,177,177,273,551,145,537,69,2,2,2,19,6,37,2,35,7,20,20,
20,20,20,22,5,2,2,2,2,83,55,68,68,68,69,2,2,35,37,2,2,51,551,145,553,273,161,161,177,161,161,161,177,161,161,161,161,161,161,161,177,161,161,177,273,551,145,553,69,2,2,2,35,37,2,2,2,19,20,20,
20,20,6,36,37,2,2,2,2,2,83,84,55,68,70,53,2,2,2,2,2,67,551,145,553,273,177,161,161,161,290,161,161,161,161,161,161,161,177,161,161,161,177,161,273,551,145,553,70,53,2,2,2,2,2,2,2,19,20,20,
20,20,21,2,2,2,2,2,2,2,2,2,83,55,68,70,53,2,2,2,2,67,551,145,553,257,274,274,274,274,322,177,161,177,161,161,241,274,274,274,274,274,274,274,258,551,145,599,520,520,520,520,520,520,520,520,520,521,20,20,
20,20,22,5,2,2,2,2,2,2,2,2,2,67,54,55,69,2,2,2,51,71,551,145,553,657,658,658,658,658,273,177,708,709,710,161,273,658,658,658,658,658,658,658,659,551,145,145,145,145,145,145,145,145,145,145,145,537,20,20,
20,20,519,520,520,520,520,520,520,520,520,520,520,67,69,83,85,520,520,520,520,520,600,145,537,657,658,658,658,658,257,274,274,725,274,274,258,658,658,658,658,658,658,658,659,567,568,568,568,568,568,568,568,568,568,584,145,553,20,20,
20,20,551,145,145,145,145,145,145,145,145,145,145,83,85,2,2,145,145,145,145,145,145,145,537,673,674,674,674,674,657,658,658,725,658,658,659,674,674,674,674,674,674,674,675,540,538,539,539,539,539,539,539,539,539,551,145,553,20,20,
20,20,551,145,583,568,568,568,568,568,568,568,568,2,2,2,2,568,568,568,568,568,568,568,569,54,84,84,55,68,657,658,659,536,657,658,659,54,84,84,84,85,2,3,4,540,538,539,539,539,539,539,539,539,539,551,145,553,20,20,
20,20,551,145,553,538,539,539,539,539,539,539,540,2,2,2,2,540,538,539,539,539,539,539,540,85,3,5,83,55,673,674,675,552,673,674,675,85,2,2,2,2,3,23,20,556,554,555,555,555,555,555,555,555,555,551,145,553,7,20,
20,20,551,145,553,241,274,274,274,274,274,242,540,114,114,114,114,540,538,539,539,539,539,539,540,3,23,22,5,83,84,85,163,164,165,2,2,2,3,4,4,4,23,20,20,21,2,2,2,2,2,2,2,2,2,551,145,553,23,20,
20,20,551,145,553,273,513,514,514,514,515,273,556,571,571,571,571,556,554,555,555,555,555,555,556,20,20,6,37,2,2,2,163,114,165,2,2,2,35,36,36,36,36,36,36,37,2,2,2,2,2,2,2,2,2,551,145,553,20,20,
20,20,551,145,553,273,529,530,530,530,531,273,2,164,114,114,164,2,19,22,4,23,6,36,7,20,6,37,2,2,2,2,163,164,165,2,2,2,2,2,2,2,2,2,2,2,2,2,2,2,2,2,2,2,2,551,145,553,20,20,
20,20,551,145,553,273,545,530,530,530,547,273,2,163,164,114,165,2,35,36,36,36,37,2,35,36,37,2,2,2,2,2,163,164,165,2,2,2,2,2,2,2,2,2,2,2,2,2,2,2,2,2,2,2,2,551,145,553,20,20,
20,20,551,145,553,273,161,161,161,177,161,273,2,163,145,164,166,148,148,148,148,148,148,148,148,148,148,148,148,148,148,148,167,145,165,2,2,2,2,2,2,2,2,2,2,2,2,2,2,2,2,2,2,2,2,551,145,553,20,20,
20,20,551,145,553,273,177,161,161,177,177,273,2,163,164,164,145,164,164,164,114,164,164,145,145,164,164,164,145,164,164,114,164,164,165,2,2,2,2,2,2,2,2,2,2,2,2,2,2,2,2,2,2,2,2,551,145,553,20,20,
20,20,551,145,553,273,161,177,161,161,177,273,2,163,164,164,150,180,536,536,536,536,536,536,536,536,536,536,536,536,536,536,536,536,536,536,2,2,2,2,2,2,2,2,2,2,2,2,2,2,2,2,2,2,2,551,145,553,20,20,
20,20,551,145,553,273,177,662,663,664,161,273,2,163,114,164,165,3,536,513,514,514,514,514,516,514,514,514,514,514,514,514,514,514,515,536,2,2,2,2,2,2,2,2,2,2,2,2,2,2,2,2,2,2,2,551,145,553,20,20,
20,20,551,145,553,257,274,274,161,274,274,258,2,163,164,164,165,19,536,529,530,530,530,530,532,530,530,530,530,530,530,530,530,530,531,536,2,2,2,2,2,2,2,2,2,2,2,2,2,2,2,2,2,2,2,551,145,553,20,20,
20,20,551,145,553,657,658,658,161,658,658,659,2,163,164,164,165,19,536,545,530,530,530,530,548,530,530,530,530,530,530,530,530,530,547,536,2,2,2,2,2,2,2,2,2,2,2,2,2,2,2,2,2,2,2,551,145,553,20,20,
20,20,551,145,553,657,658,659,536,657,658,659,2,163,145,164,165,19,536,161,161,161,177,161,161,161,161,161,161,161,724,725,725,725,725,536,2,2,2,2,2,2,2,2,2,2,2,2,2,2,2,2,2,2,2,551,145,553,20,20,
20,20,551,145,553,673,674,675,552,673,674,675,2,163,164,164,165,19,536,177,161,177,161,161,161,161,177,161,161,161,724,725,725,725,725,536,2,2,2,2,2,2,2,2,2,2,2,2,2,2,2,2,2,2,2,551,145,553,20,20,
20,20,551,145,553,54,85,163,164,165,35,37,2,163,164,114,165,35,536,177,708,709,710,161,161,161,161,161,161,161,740,741,741,741,741,536,2,2,2,2,2,2,2,2,2,2,2,2,2,2,2,2,2,2,2,551,145,553,20,20,
20,20,551,145,553,85,2,163,114,165,2,2,2,163,164,164,165,2,536,536,536,725,536,536,536,161,161,161,161,177,161,161,161,177,161,536,2,2,2,2,2,2,2,2,2,2,2,2,2,2,2,2,2,2,2,551,145,553,20,20,
20,20,551,145,553,4,5,163,164,166,148,148,148,167,164,164,165,2,657,658,658,725,658,658,536,161,177,161,161,161,161,177,161,161,161,536,2,2,2,2,2,2,2,2,2,519,520,520,520,520,520,520,520,520,520,600,145,553,20,20,
20,20,551,145,553,20,21,179,180,180,180,180,180,151,164,164,165,3,657,658,659,536,657,658,536,662,663,663,663,663,663,663,663,664,161,536,2,2,2,2,2,2,2,2,2,551,145,145,145,145,145,145,145,145,145,145,145,553,20,20,
20,20,551,145,553,20,22,4,4,4,4,5,2,163,145,164,165,19,673,674,675,552,673,674,536,678,679,679,679,679,679,679,679,680,161,536,2,2,2,2,2,2,2,2,2,551,145,583,568,568,568,568,568,568,568,568,568,569,20,20,
20,20,551,145,553,36,36,36,36,36,36,37,2,163,164,164,165,35,36,37,163,164,165,19,536,678,679,679,679,679,679,679,679,680,161,536,2,2,2,2,2,2,2,2,2,551,145,553,538,539,539,539,539,539,539,539,539,540,20,20,
20,20,551,145,553,2,2,2,2,2,2,2,147,167,164,114,166,148,149,2,163,145,165,35,536,678,679,679,679,679,679,679,679,680,161,536,2,2,2,2,2,2,2,2,2,551,145,553,538,539,539,539,539,539,539,539,539,540,20,20,
20,20,551,145,553,5,2,2,2,2,2,147,167,164,164,164,164,164,166,149,163,164,165,2,536,678,679,679,679,679,679,679,679,680,177,536,2,2,2,2,2,2,2,2,2,551,145,553,554,555,555,555,555,555,555,555,555,556,20,20,
20,20,551,145,553,22,4,5,2,2,2,163,164,114,150,180,151,145,164,166,167,164,165,2,536,678,679,679,679,679,679,679,679,680,177,536,2,2,2,2,2,2,2,2,2,551,145,553,19,20,20,20,22,4,4,5,19,20,20,20,
20,20,551,145,553,20,20,22,5,2,2,163,145,164,165,2,163,164,164,164,164,145,165,3,536,678,679,679,679,679,679,161,679,680,177,536,2,2,2,2,2,2,2,2,2,551,145,553,19,20,20,20,20,20,6,37,35,7,20,20,
20,20,551,145,553,20,20,20,21,2,2,163,164,164,166,148,167,164,114,150,180,180,181,19,536,678,679,679,679,679,679,679,679,680,161,536,2,2,2,2,2,2,2,2,2,551,145,553,35,7,20,20,20,20,22,4,4,23,20,6,
20,20,551,145,553,20,20,20,21,2,2,179,151,145,145,164,164,164,150,181,2,2,2,19,536,694,695,695,695,695,695,695,695,696,161,536,2,2,2,2,2,2,2,2,2,551,145,553,3,23,20,20,20,20,20,20,20,20,20,22,
20,20,551,145,553,20,20,6,37,2,2,2,179,180,151,164,114,150,181,2,2,2,3,23,536,536,536,536,536,536,536,536,536,536,536,536,2,2,2,2,2,2,2,2,2,551,145,553,19,20,20,20,20,20,20,20,20,20,20,20,
20,20,551,145,553,20,20,21,2,2,3,5,2,2,163,164,164,165,2,2,2,3,23,20,657,658,658,658,658,658,658,658,658,658,658,659,2,2,2,2,2,2,2,2,2,551,145,537,19,20,20,20,6,36,7,20,20,20,20,20,
20,20,551,145,599,520,520,520,521,4,23,22,5,2,163,164,164,165,2,2,3,23,20,519,520,520,520,520,520,520,520,520,520,520,520,520,520,520,520,520,520,520,520,520,520,600,145,537,19,20,20,6,37,2,35,36,7,20,20,20,
20,20,551,145,145,145,145,145,553,20,20,20,21,2,163,114,114,165,2,2,19,20,20,551,145,145,145,145,145,145,145,145,145,145,145,145,145,145,145,145,145,145,145,145,145,145,145,537,19,20,20,21,2,2,2,2,35,7,20,20,
20,20,567,568,568,568,584,145,599,520,520,520,520,520,2,2,2,2,520,520,520,520,520,600,145,583,568,568,568,568,568,568,568,568,568,568,568,568,568,568,568,568,568,568,568,568,568,569,23,20,6,37,2,51,53,2,2,35,7,20,
20,20,540,538,539,539,551,145,145,145,145,145,145,145,2,2,51,52,145,145,145,145,145,145,145,553,538,539,539,539,539,539,539,539,539,539,539,539,539,539,539,539,539,539,539,539,539,540,20,20,21,2,2,67,70,53,2,2,35,7,
20,20,540,538,539,539,567,568,568,568,568,568,568,568,52,52,71,68,568,568,568,568,568,568,568,569,538,539,539,539,539,539,539,539,539,539,539,539,539,539,539,539,539,539,539,539,539,540,6,36,37,2,51,71,68,70,53,2,2,35,
20,20,556,554,555,555,540,538,539,539,539,539,539,540,164,164,164,164,540,538,539,538,539,539,539,540,554,555,555,555,555,555,555,555,555,555,555,555,555,555,555,555,555,555,555,555,555,556,21,2,2,51,71,68,68,68,70,52,53,2,
7,20,20,22,4,4,540,538,539,539,539,539,539,540,114,114,114,114,540,538,539,538,539,539,539,540,2,2,35,36,7,22,23,20,20,20,20,20,20,20,20,20,20,20,20,20,20,20,21,2,2,67,68,68,68,68,68,68,70,52,
23,20,20,20,20,20,556,554,555,555,555,555,555,556,114,114,114,114,556,554,555,554,555,555,555,556,2,2,2,2,35,36,7,20,20,20,20,20,20,20,20,20,20,20,20,20,20,20,21,2,2,67,68,68,68,68,68,68,68,68,
20,20,20,20,20,20,20,20,20,6,37,2,2,83,55,68,68,54,85,2,2,83,55,54,85,2,2,2,2,2,2,2,35,7,20,20,20,20,20,20,20,20,20,20,20,20,20,6,37,2,2,83,55,68,68,68,68,68,68,68,
20,20,20,20,20,6,36,36,36,37,2,2,2,2,83,55,68,70,53,2,2,2,83,85,2,2,2,2,2,2,2,2,2,19,20,20,20,20,20,20,20,20,20,20,20,6,36,37,2,3,5,2,83,84,55,68,68,68,68,68,
20,20,20,20,6,37,2,2,2,2,2,2,2,2,2,67,68,54,85,2,2,2,2,2,2,2,2,2,2,2,2,2,3,23,20,20,6,7,20,20,20,20,20,20,20,21,2,2,3,23,22,5,2,2,67,68,68,68,68,68,
20,20,20,20,21,2,2,2,2,2,2,2,2,2,2,67,54,85,2,2,2,2,2,2,2,2,2,2,2,2,3,4,23,20,20,20,22,23,20,20,20,20,20,20,20,21,2,2,35,36,36,37,2,51,71,68,68,68,54,55,
20,20,20,20,21,2,3,4,4,4,5,2,2,2,2,67,69,2,2,2,2,2,2,2,2,2,2,3,4,4,23,20,20,20,20,20,20,20,20,20,20,20,20,20,20,22,5,2,2,2,2,51,52,71,68,68,68,68,69,83,
20,20,20,20,22,4,23,20,20,20,22,4,4,4,5,67,70,53,2,2,2,2,3,4,4,4,4,23,20,20,20,20,20,20,20,20,20,20,20,20,20,20,20,20,20,20,22,4,4,5,2,83,55,68,68,68,68,68,69,2,
20,20,20,20,20,20,20,20,20,20,20,20,20,20,21,67,68,69,2,2,2,2,35,7,20,20,20,20,20,20,6,7,20,20,20,6,36,7,20,6,7,20,20,20,20,20,20,20,20,22,5,2,67,68,68,68,68,68,70,53
</data>
 </layer>
 <layer id="2" name="Ground Detail" width="60" height="60">
  <data encoding="csv">
79,80,79,80,79,80,79,80,79,80,79,80,79,80,79,80,79,80,0,79,80,0,79,80,79,80,79,80,79,80,79,80,79,80,79,80,79,80,79,80,79,80,79,80,79,80,79,80,0,0,79,80,79,80,79,80,79,80,79,80,
0,79,80,79,80,75,0,0,0,78,0,79,80,79,80,79,80,76,77,0,0,79,0,0,0,0,0,0,0,0,0,0,0,0,0,0,0,0,0,0,0,0,0,0,0,0,0,0,80,79,80,79,80,79,80,79,80,79,80,79,
0,0,77,0,0,0,0,0,0,0,0,0,79,80,0,94,0,0,0,0,0,0,0,0,0,0,0,0,0,0,0,0,0,0,0,0,0,0,0,0,0,0,0,0,0,0,0,0,79,80,79,80,79,80,79,80,79,80,79,80,
0,0,0,0,0,0,0,0,0,0,0,0,0,79,80,0,0,0,0,0,0,0,0,0,0,0,0,0,0,0,0,0,0,0,0,0,0,0,0,0,0,0,0,0,0,0,0,0,77,75,0,79,80,79,80,79,80,79,80,79,
0,0,0,0,0,0,0,233,0,0,0,0,0,0,0,0,0,0,0,233,0,0,0,0,0,0,0,0,0,0,0,0,0,0,0,0,0,0,0,0,0,0,0,0,0,0,0,0,0,0,0,77,0,0,79,80,79,80,79,80,
0,0,0,0,0,0,0,0,0,234,0,0,0,0,0,0,0,0,0,0,0,0,0,0,0,0,0,0,0,0,0,0,0,0,0,0,0,0,0,0,0,0,0,0,0,0,0,0,0,0,0,0,0,0,0,0,0,79,80,79,
0,0,0,0,0,0,0,0,0,0,0,0,0,0,0,0,0,0,0,0,0,232,0,0,0,0,0,0,0,0,0,0,0,0,0,0,0,0,0,0,0,0,0,0,0,0,0,0,0,0,0,0,0,0,0,0,0,0,79,80,
0,0,0,0,0,0,0,0,0,0,0,0,0,0,0,0,79,80,0,0,0,0,0,0,0,0,698,687,688,697,0,0,720,0,685,0,0,0,0,0,0,0,0,0,0,0,0,0,249,0,0,0,79,80,0,0,0,0,0,77,
0,0,0,0,0,0,0,232,0,0,0,0,0,0,0,0,0,0,0,0,0,0,0,0,0,0,714,656,656,713,0,0,0,0,0,0,0,0,0,0,0,0,0,0,0,0,0,0,0,0,233,0,0,0,0,0,0,0,0,0,
0,0,0,0,0,0,0,0,0,0,0,0,0,0,0,0,0,0,77,0,0,0,0,0,0,0,0,672,672,0,0,0,0,0,0,0,139,0,0,0,0,0,0,0,0,0,0,0,0,0,0,0,0,0,0,0,79,80,0,0,
0,0,0,0,0,0,0,0,0,0,0,0,0,0,0,0,0,0,0,0,0,0,0,0,0,0,0,0,0,0,0,0,0,120,0,0,0,0,0,0,0,0,0,0,0,0,0,0,0,0,249,0,0,0,0,0,0,0,0,76,
79,80,78,0,0,0,233,0,0,0,0,0,0,0,0,0,0,0,0,0,0,0,0,0,0,0,0,0,0,0,0,0,136,57,137,0,0,0,0,0,0,0,0,0,0,0,0,0,0,233,0,0,0,0,0,249,0,0,0,0,
80,0,0,0,0,0,0,0,0,0,0,0,0,0,0,0,0,0,0,234,0,0,0,0,0,0,0,0,0,0,0,0,0,0,0,0,0,0,0,0,0,0,0,0,0,0,0,0,0,0,0,233,0,0,249,0,0,0,0,0,
79,80,0,0,0,0,0,0,0,0,0,0,0,0,0,0,0,0,233,0,0,0,0,0,0,0,0,0,0,0,0,0,0,0,0,0,0,0,0,0,0,0,0,0,0,0,0,0,0,0,0,0,0,0,0,0,0,0,0,79,
80,79,80,0,0,0,0,0,0,233,0,0,0,0,0,0,0,0,0,0,0,0,0,0,0,0,0,0,0,0,0,0,0,0,0,0,0,0,0,0,0,0,0,0,0,0,0,0,525,526,0,0,0,0,0,0,0,0,79,80,
79,80,0,0,0,0,0,0,0,0,0,0,0,0,0,0,0,0,0,0,0,0,0,0,0,0,0,206,0,0,0,0,0,0,0,0,0,0,0,206,0,0,0,206,0,0,0,0,541,542,0,0,0,0,0,0,0,0,0,79,
80,0,0,0,0,0,0,0,0,0,0,0,0,0,0,0,0,0,0,0,525,526,0,0,0,0,0,0,0,0,0,0,0,0,0,0,0,0,0,0,0,0,0,0,0,0,0,0,573,574,0,0,0,0,0,0,0,0,79,80,
79,80,0,0,0,0,0,0,0,0,0,0,0,0,0,0,0,0,0,0,541,542,0,0,0,47,0,0,0,152,0,206,0,0,0,206,0,138,0,0,0,0,79,80,0,0,0,0,557,558,0,0,0,0,0,0,0,0,0,79,
80,0,0,0,0,0,0,0,0,0,0,0,0,661,661,661,661,0,0,0,573,574,0,0,0,0,79,80,0,168,0,0,0,0,0,0,0,0,0,0,79,80,0,0,0,0,0,0,573,574,0,0,0,0,0,0,0,0,76,0,
0,77,0,0,0,0,0,0,0,0,0,0,0,661,661,661,661,0,0,0,557,558,0,0,0,75,0,0,0,0,0,107,0,677,0,0,75,0,0,0,0,0,0,93,0,27,0,0,589,590,0,0,0,0,0,0,0,0,0,0,
77,0,0,0,0,0,0,0,0,0,0,0,0,661,661,661,661,0,0,0,573,574,0,0,0,12,12,12,12,12,12,13,0,0,0,11,12,12,12,12,12,12,12,12,12,29,0,0,0,0,0,0,0,0,0,0,0,0,0,0,
0,94,0,0,0,0,0,701,0,0,0,0,179,151,0,0,150,181,0,75,589,590,0,0,79,80,234,0,0,0,0,43,0,0,0,29,0,0,0,0,0,0,0,0,0,0,0,0,0,0,0,0,0,0,0,0,0,0,79,80,
0,0,0,0,0,0,171,0,0,0,0,0,75,0,0,0,0,0,0,0,0,0,0,0,0,0,0,0,0,233,0,0,0,0,0,0,0,0,0,0,0,0,0,0,0,0,0,0,0,0,0,0,0,0,0,0,0,0,0,79,
93,0,0,0,0,0,187,0,0,0,715,0,0,0,0,0,0,0,0,0,0,0,0,0,0,0,0,0,0,0,0,0,0,0,0,0,0,0,0,0,0,0,0,0,0,0,0,0,0,0,0,0,0,0,0,0,0,0,77,75,
0,75,0,0,0,0,8,9,9,9,10,0,75,0,0,0,0,0,0,0,0,0,0,0,0,0,0,0,0,0,0,0,0,0,0,0,0,0,0,0,0,0,0,0,0,0,0,0,0,0,0,0,0,0,0,0,0,0,0,0,
0,0,0,0,0,0,719,0,0,0,0,0,0,0,0,0,0,0,241,274,274,274,274,274,274,274,274,274,274,274,274,274,274,274,274,242,0,0,0,0,0,0,0,0,0,0,0,0,0,0,0,0,0,0,0,0,0,0,0,0,
80,0,0,0,0,0,0,0,0,0,0,0,75,0,0,0,0,75,273,0,0,0,0,0,0,0,0,0,0,0,0,0,0,0,0,273,0,0,0,0,0,0,0,0,0,0,0,0,0,0,0,0,0,0,0,0,0,0,0,77,
79,80,0,0,0,0,0,0,0,0,0,0,0,0,0,0,0,0,273,0,139,0,0,0,0,0,139,0,0,0,0,0,0,0,0,273,0,0,0,0,0,0,0,0,0,0,0,0,0,0,0,0,0,0,0,0,0,0,0,0,
80,77,0,0,0,0,0,0,0,0,0,0,75,0,0,0,0,75,273,0,0,0,0,0,0,0,0,0,0,0,0,0,0,0,0,273,0,0,0,0,0,0,0,0,0,0,0,0,0,0,0,0,0,0,0,0,0,0,0,0,
77,0,0,0,0,0,206,0,0,0,206,0,0,0,0,0,0,0,273,111,111,0,0,0,0,0,0,0,0,0,0,0,0,0,667,273,0,0,0,0,0,0,0,0,0,0,0,0,0,0,0,0,0,0,0,0,0,0,79,80,
0,0,0,0,0,0,0,0,0,0,0,0,13,0,0,0,0,0,273,0,0,0,0,0,0,0,0,0,0,0,0,8,9,9,10,273,0,0,0,0,0,0,0,0,0,0,0,0,0,0,0,0,0,0,0,0,0,0,77,0,
80,0,0,0,0,0,0,0,677,0,0,77,27,0,0,0,0,0,273,0,0,0,0,0,0,0,0,0,0,0,0,0,0,0,0,273,0,0,0,0,0,0,0,0,0,0,0,0,0,0,0,0,0,0,0,0,0,0,0,0,
79,80,0,0,0,0,0,0,0,0,28,12,29,0,0,0,0,0,257,274,274,0,274,274,242,0,0,0,0,0,0,0,0,0,0,273,0,0,0,0,0,0,0,0,0,0,0,0,0,0,0,0,0,0,0,0,0,0,75,0,
77,0,0,0,0,0,0,0,0,0,0,0,0,0,0,0,0,0,0,0,0,0,0,0,273,0,0,0,0,0,0,0,0,0,111,273,0,0,0,0,0,0,0,0,0,0,0,0,0,0,0,0,0,0,0,0,0,0,0,0,
75,0,0,0,0,59,0,0,0,0,0,0,0,0,0,0,0,0,0,206,0,0,0,0,273,0,0,0,0,0,0,0,0,0,111,273,0,0,0,0,0,0,0,0,0,0,0,0,0,0,0,0,0,0,0,0,525,526,0,0,
0,0,0,0,0,59,79,80,0,79,80,0,27,0,0,0,0,0,0,0,0,0,0,0,273,0,0,120,0,0,0,120,0,0,0,273,0,0,0,0,0,0,0,0,0,0,0,0,0,0,0,0,0,0,0,0,541,542,79,80,
80,0,0,0,0,12,12,12,12,12,12,12,29,0,0,0,0,0,0,0,0,677,0,77,273,0,136,25,137,0,136,25,137,0,0,273,0,0,0,0,0,0,0,0,0,0,0,0,0,0,0,0,0,0,0,0,573,574,0,79,
79,80,0,0,0,0,249,0,0,0,0,0,0,0,0,0,0,0,0,0,0,0,0,138,273,0,0,121,0,0,0,121,0,0,0,273,0,0,0,0,0,0,0,0,0,0,0,0,0,0,0,0,0,0,0,0,557,558,79,80,
80,0,0,0,0,0,0,0,233,0,0,0,0,0,0,0,0,0,0,0,0,0,0,0,273,0,0,0,0,0,0,0,0,0,0,273,0,0,0,0,0,0,0,0,0,0,0,0,0,0,0,0,0,0,0,0,573,574,0,79,
79,80,0,0,0,0,0,0,0,249,0,0,0,0,0,0,0,0,0,0,0,0,0,0,273,0,0,120,0,0,0,120,0,0,0,273,0,0,0,0,0,0,0,0,0,0,0,0,79,80,79,80,79,80,79,80,589,590,79,80,
80,0,0,0,0,0,0,0,0,0,0,0,0,0,0,124,0,0,0,0,0,0,0,0,273,0,136,25,137,0,136,25,137,0,0,273,0,0,0,0,0,0,0,0,0,0,0,0,77,79,80,79,80,79,80,79,80,79,80,79,
79,80,0,0,0,79,80,0,0,0,233,0,0,0,0,0,0,0,0,0,0,0,0,0,273,0,0,121,0,0,0,121,0,0,715,273,0,0,0,0,0,0,0,0,0,0,0,0,79,80,79,80,79,80,79,80,79,80,79,80,
80,0,0,0,0,76,79,80,0,0,0,0,0,0,0,0,0,0,0,0,0,0,28,12,273,667,0,0,0,0,0,0,0,0,715,273,0,0,0,0,0,0,0,0,0,0,0,0,77,79,80,0,0,79,80,0,0,0,0,79,
0,0,0,0,0,0,77,0,0,0,0,0,0,0,0,0,0,0,0,0,233,0,0,0,257,274,274,274,274,274,274,274,274,274,274,258,0,0,0,0,0,0,0,0,0,0,0,0,79,80,0,0,0,0,0,78,0,0,0,0,
80,0,0,0,0,234,0,0,0,0,0,0,0,0,0,0,0,0,0,0,0,0,0,0,0,0,0,0,0,0,0,0,0,0,0,0,0,0,0,0,0,0,0,0,0,0,0,0,77,79,80,0,0,0,0,0,0,0,0,0,
0,0,0,0,0,0,0,0,0,0,0,77,0,0,0,0,0,0,233,0,0,0,79,0,0,0,0,0,0,0,0,0,0,0,0,0,0,0,0,0,0,0,0,0,0,0,0,0,79,80,0,0,0,0,0,0,0,0,78,0,
0,77,0,0,0,0,0,0,0,0,0,0,0,0,0,0,0,0,0,0,0,0,0,0,0,0,0,0,0,0,0,0,0,0,0,0,0,0,0,0,0,0,0,0,0,0,525,526,77,79,80,0,249,0,233,0,0,0,0,0,
0,0,0,0,0,0,0,0,0,0,0,0,0,0,0,0,0,0,0,0,0,0,0,0,0,0,0,0,0,0,0,0,0,0,0,0,0,0,0,0,0,0,0,0,0,0,541,542,79,80,0,0,0,0,0,0,0,0,0,0,
77,0,0,0,0,0,0,0,0,0,0,525,526,0,0,0,0,0,0,525,526,0,0,0,0,0,0,0,0,0,0,0,0,0,0,0,0,0,0,0,0,0,0,0,0,0,573,574,0,0,0,0,0,0,0,0,0,249,0,0,
79,80,0,0,0,0,0,0,176,0,0,541,542,0,0,0,0,0,0,541,542,0,0,176,0,0,0,0,0,0,0,0,0,0,0,0,0,0,0,0,0,0,0,0,0,0,557,558,0,0,0,0,0,0,0,0,0,0,233,0,
80,77,0,0,0,0,0,0,192,0,0,573,574,0,661,661,661,661,0,573,574,0,0,192,0,0,0,0,0,0,0,0,0,0,0,0,0,0,0,0,0,0,0,0,0,0,573,574,0,0,249,0,0,0,0,0,0,0,0,0,
79,80,79,80,79,80,0,0,0,0,0,557,558,0,661,661,661,661,0,557,558,0,0,0,0,0,249,0,0,0,0,77,79,80,79,80,79,80,79,80,79,80,79,80,79,80,589,590,0,0,0,0,0,0,0,0,0,0,0,0,
80,79,80,79,80,93,0,0,0,0,0,573,574,0,661,661,661,661,0,573,574,0,0,0,0,0,0,0,0,0,0,0,0,0,0,79,80,79,80,79,80,79,80,79,80,79,80,79,80,249,0,0,0,0,0,0,0,0,0,0,
79,80,0,0,0,0,0,76,0,0,0,589,590,0,677,677,677,677,0,589,590,0,0,0,0,0,0,0,0,233,0,0,0,0,0,75,79,80,79,80,79,80,79,80,79,80,78,0,0,0,233,0,0,0,0,0,0,0,0,0,
80,0,75,0,0,0,0,0,0,0,249,0,0,0,0,0,0,0,0,0,0,0,0,0,0,0,79,80,0,0,0,0,0,0,0,0,0,79,80,79,80,79,80,79,80,0,0,0,233,0,0,0,0,0,0,0,0,0,0,0,
79,80,0,0,0,0,0,0,0,0,0,233,0,0,0,0,0,0,0,0,0,233,0,0,0,0,0,233,0,0,0,249,0,0,0,0,79,80,79,80,79,80,79,80,0,0,249,0,0,79,80,0,0,0,0,0,0,0,0,0,
80,0,0,0,0,0,0,249,0,0,0,0,0,233,0,0,0,0,0,0,0,0,234,249,0,233,0,0,0,0,0,0,79,80,0,0,0,79,80,79,80,79,80,79,80,0,0,233,0,0,0,0,249,0,0,0,0,0,0,0,
79,80,0,0,0,249,0,0,0,0,0,0,0,0,0,0,0,0,0,233,0,249,0,0,0,0,0,0,0,0,0,0,0,76,0,0,79,80,79,80,79,80,79,80,0,0,0,0,249,0,0,0,0,0,0,0,0,0,0,0,
80,79,80,0,0,0,0,79,80,0,0,0,0,0,0,0,0,0,0,0,0,0,0,0,0,0,0,0,0,78,79,80,0,0,79,80,0,79,80,79,80,0,75,79,80,0,0,0,0,0,0,0,0,0,0,0,0,0,0,0,
79,80,79,80,79,80,77,0,79,80,79,80,79,80,0,0,0,0,249,0,0,0,0,0,79,80,0,79,80,79,80,79,80,79,80,79,80,78,79,80,79,80,79,80,79,80,79,80,79,80,0,249,0,0,0,0,0,0,0,0
</data>
 </layer>
 <layer id="5" name="Decorations" width="60" height="60">
  <data encoding="csv">
0,0,0,0,0,0,0,0,0,0,0,0,0,0,0,0,0,0,0,0,0,0,0,0,0,0,0,0,0,0,0,0,0,0,0,0,0,0,0,0,0,0,0,0,0,0,0,0,0,0,0,0,0,0,0,0,0,0,0,0,
0,0,0,0,0,0,0,0,0,0,0,0,0,0,0,0,0,0,0,0,0,0,0,0,0,0,0,0,0,0,0,0,0,0,0,0,0,0,0,0,0,0,0,0,0,0,0,0,0,0,0,0,0,0,0,0,0,0,0,0,
0,0,0,0,0,0,0,0,0,0,0,0,0,0,0,0,0,0,0,0,0,0,0,0,0,0,0,0,0,0,0,0,0,0,0,0,0,0,0,0,0,0,0,0,0,0,0,0,0,0,0,0,0,0,0,0,0,0,0,0,
0,0,0,0,0,0,0,0,0,0,0,0,0,0,0,0,0,0,0,0,0,0,0,0,0,0,0,0,0,0,0,0,0,0,0,0,0,0,0,0,0,0,0,0,0,0,0,0,0,0,0,0,0,0,0,0,0,0,0,0,
0,0,0,0,0,0,0,0,0,0,0,0,0,0,0,0,0,0,0,0,0,0,0,0,0,0,0,0,0,0,0,0,0,0,0,0,0,0,0,0,0,0,0,0,0,0,0,0,0,0,0,0,0,0,0,0,0,0,0,0,
0,0,0,0,0,0,0,0,0,0,0,0,0,0,0,0,0,0,0,0,0,0,0,0,0,0,0,0,0,0,0,0,0,0,0,0,0,0,0,0,0,0,0,0,0,0,0,0,0,0,0,0,0,0,0,0,0,0,0,0,
0,0,0,0,0,0,0,0,0,0,0,0,0,0,0,0,0,0,0,0,0,0,0,0,0,0,0,0,0,0,0,0,0,0,0,0,0,0,0,0,0,0,0,0,0,0,0,0,0,0,0,0,0,0,0,0,0,0,0,0,
0,0,0,0,0,0,0,0,0,0,0,0,0,0,0,0,0,0,0,0,0,0,0,0,0,0,0,0,0,0,0,0,0,0,0,0,0,0,0,0,0,0,0,0,0,0,0,0,0,0,0,0,0,0,0,0,0,0,0,0,
0,0,0,0,0,0,0,0,0,0,0,0,0,0,0,0,0,0,0,0,0,0,0,0,0,0,0,0,0,0,0,0,0,0,0,0,0,0,0,0,0,0,0,0,0,0,0,0,0,0,0,0,0,0,0,0,0,0,0,0,
0,0,0,0,0,0,0,0,0,0,0,0,0,0,0,0,0,0,0,0,0,0,0,0,0,0,0,0,0,0,0,0,0,0,0,0,0,0,0,0,0,0,0,0,0,0,0,0,0,0,0,0,0,0,0,0,0,0,0,0,
0,0,0,0,0,0,0,0,0,0,0,0,0,0,0,0,0,0,0,0,0,0,0,0,0,0,0,0,0,0,0,0,0,0,0,0,0,0,0,0,0,0,0,0,0,0,0,0,0,0,0,0,0,0,0,0,0,0,0,0,
0,0,0,0,0,0,0,0,0,0,0,0,0,0,0,0,0,0,0,0,0,0,0,0,0,0,0,0,0,0,0,0,0,0,0,0,0,0,0,0,0,0,0,0,0,0,0,0,0,0,0,0,0,0,0,0,0,0,0,0,
0,0,0,0,0,0,0,0,0,0,0,0,0,0,0,0,0,0,0,0,0,0,0,0,0,0,0,0,0,0,0,0,0,0,0,0,0,0,0,0,0,0,0,0,0,0,0,0,0,0,0,0,0,0,0,0,0,0,0,0,
0,0,0,0,0,0,0,0,0,0,0,0,0,0,0,0,0,0,0,0,0,0,0,0,0,0,0,0,0,0,0,0,0,0,0,0,0,0,0,0,0,0,0,0,0,0,0,0,0,0,0,0,0,0,0,0,0,0,0,0,
0,0,0,0,0,0,0,0,0,0,0,0,0,0,0,0,0,0,0,0,0,0,0,0,0,0,0,0,0,0,0,0,0,0,0,0,0,0,0,0,0,0,0,0,0,0,0,0,0,0,0,0,0,0,0,0,0,0,0,0,
0,0,0,0,0,0,0,0,0,0,0,0,0,0,0,0,0,0,0,0,0,0,0,0,0,0,0,0,0,0,0,0,0,0,0,0,0,0,0,0,0,0,0,0,0,0,0,0,0,0,0,0,0,0,0,0,0,0,0,0,
0,0,0,0,0,0,0,0,0,0,0,0,0,0,0,0,0,0,0,0,0,0,0,0,0,0,0,0,0,0,0,0,0,0,0,0,0,0,0,0,0,0,0,0,0,0,0,0,0,0,0,0,0,0,0,0,0,0,0,0,
0,0,0,0,0,0,0,0,0,0,0,0,0,0,0,0,0,0,0,0,0,0,0,0,0,0,0,0,0,0,0,0,0,0,0,0,0,0,0,0,0,0,0,0,0,0,0,0,0,0,0,0,0,0,0,0,0,0,0,0,
0,0,0,0,0,0,0,0,0,0,0,0,0,0,0,0,0,0,0,0,0,0,0,0,0,0,0,0,0,0,0,0,0,0,0,0,0,0,0,0,0,0,0,0,0,0,0,0,0,0,0,0,0,0,0,0,0,0,0,0,
0,0,0,0,0,0,0,0,0,0,0,0,0,0,0,0,0,0,0,0,0,0,0,0,0,0,0,0,0,0,0,0,0,0,0,0,0,0,0,0,0,0,0,0,0,0,0,0,0,0,0,0,0,0,0,0,0,0,0,0,
0,0,0,0,0,0,0,0,0,0,0,0,0,0,0,0,0,0,0,0,0,0,0,0,0,0,0,0,0,0,0,0,0,0,0,0,0,0,0,0,0,0,0,0,0,0,0,0,0,0,0,0,0,0,0,0,0,0,0,0,
0,0,0,0,0,0,0,0,0,139,0,0,0,0,0,0,0,0,0,0,0,0,0,0,0,0,0,0,0,0,0,0,0,0,0,0,0,0,0,0,0,0,0,0,0,0,0,0,0,0,0,0,0,0,0,0,0,0,0,0,
0,0,0,0,0,0,0,0,0,0,0,0,0,0,0,0,0,0,0,0,0,0,0,0,0,0,0,0,0,0,0,0,0,0,0,0,0,0,0,0,0,0,0,0,0,0,0,0,0,0,0,0,0,0,0,0,0,0,0,0,
0,0,0,0,0,0,0,0,0,0,0,0,0,0,0,0,0,0,0,0,0,0,0,0,0,0,0,0,0,0,0,0,0,0,0,0,0,0,0,0,0,0,0,0,0,0,0,0,0,0,0,0,0,0,0,0,0,0,0,0,
0,0,0,0,0,0,0,0,0,0,0,0,0,0,0,0,0,0,0,0,0,0,0,0,0,0,0,0,0,0,0,0,0,0,0,0,0,0,0,0,0,0,0,0,0,0,0,0,0,0,0,0,0,0,0,0,0,0,0,0,
0,0,0,0,0,0,0,0,0,0,0,0,0,0,0,0,0,0,0,0,0,0,0,0,0,0,0,0,0,0,0,0,0,0,0,0,0,0,0,0,0,0,0,0,0,0,0,0,0,0,0,0,0,0,0,0,0,0,0,0,
0,0,0,0,0,0,0,0,0,0,0,0,0,0,0,0,0,0,0,0,0,0,0,0,0,0,0,0,0,0,0,0,0,0,0,0,0,0,0,0,0,0,0,0,0,0,0,0,0,0,0,0,0,0,0,0,0,0,0,0,
0,0,0,0,0,0,0,0,0,0,0,0,0,0,0,0,0,0,0,0,0,0,0,0,0,0,0,0,0,686,0,704,720,0,0,0,0,0,0,0,0,0,0,0,0,0,0,0,0,0,0,0,0,0,0,0,0,0,0,0,
0,0,0,0,0,0,0,0,0,0,0,0,0,0,0,0,0,0,0,0,0,0,0,0,0,0,0,0,0,0,0,0,0,0,0,0,0,0,0,0,0,0,0,0,0,0,0,0,0,0,0,0,0,0,0,0,0,0,0,0,
0,0,0,0,0,0,0,0,0,0,0,0,0,0,0,0,0,0,0,0,0,0,0,0,0,0,0,0,0,0,0,0,0,0,0,0,0,0,0,0,0,0,0,0,0,0,0,0,0,0,0,0,0,0,0,0,0,0,0,0,
0,0,0,0,0,0,0,0,0,0,0,0,0,0,0,0,0,0,0,0,0,0,0,0,0,0,0,0,0,0,0,0,0,0,0,0,0,0,0,0,0,0,0,0,0,0,0,0,0,0,0,0,0,0,0,0,0,0,0,0,
0,0,0,0,0,0,0,0,0,0,0,0,0,0,0,0,0,0,0,0,0,0,0,0,0,0,0,0,0,0,0,0,0,0,0,0,0,0,0,0,0,0,0,0,0,0,0,0,0,0,0,0,0,0,0,0,0,0,0,0,
0,0,0,0,0,0,0,0,0,0,0,45,0,0,0,0,0,0,0,0,0,0,0,0,0,0,0,0,0,0,0,0,0,0,0,0,0,0,0,0,0,0,0,0,0,0,0,0,0,0,0,0,0,0,0,0,0,0,0,0,
0,0,0,0,0,0,0,0,0,0,0,0,0,0,0,0,0,0,0,0,0,0,0,0,0,0,0,0,0,0,0,0,0,0,0,0,0,0,0,0,0,0,0,0,0,0,0,0,0,0,0,0,0,0,0,0,0,0,0,0,
0,0,0,0,0,0,0,0,0,0,0,0,0,0,0,0,0,0,0,0,0,0,0,0,0,0,0,0,0,0,0,0,0,0,0,0,0,0,0,0,0,0,0,0,0,0,0,0,0,0,0,0,0,0,0,0,0,0,0,0,
0,0,0,0,0,0,0,0,0,0,0,0,0,0,0,0,0,0,0,0,0,0,0,0,0,0,0,0,0,0,0,0,0,0,0,0,0,0,0,0,0,0,0,0,0,0,0,0,0,0,0,0,0,0,0,0,0,0,0,0,
0,0,0,0,0,0,0,0,0,0,0,0,0,0,0,0,0,0,0,0,0,0,0,0,0,0,0,0,0,0,0,0,0,0,0,0,0,0,0,0,0,0,0,0,0,0,0,0,0,0,0,0,0,0,0,0,0,0,0,0,
0,0,0,0,0,0,0,0,0,0,0,0,0,0,0,0,0,0,0,0,0,0,0,0,0,0,0,0,0,0,0,0,0,0,0,0,0,0,0,0,0,0,0,0,0,0,0,0,0,0,0,0,0,0,0,0,0,0,0,0,
0,0,0,0,0,0,0,0,0,0,0,0,0,0,0,0,0,0,0,0,0,0,0,0,0,0,0,0,0,0,0,0,0,0,0,0,0,0,0,0,0,0,0,0,0,0,0,0,0,0,0,0,0,0,0,0,0,0,0,0,
0,0,0,0,0,0,0,0,0,0,0,0,0,0,0,0,0,0,0,0,0,0,0,0,0,0,0,0,0,0,0,0,0,0,0,0,0,0,0,0,0,0,0,0,0,0,0,0,0,0,0,0,0,0,0,0,0,0,0,0,
0,0,0,0,0,0,0,0,0,0,0,0,0,0,0,0,0,0,0,0,0,0,0,0,0,0,0,0,0,0,0,0,0,0,0,0,0,0,0,0,0,0,0,0,0,0,0,0,0,0,0,0,0,0,0,0,0,0,0,0,
0,0,0,0,0,0,0,0,0,0,0,0,0,0,0,0,0,0,0,0,0,0,0,0,0,0,0,0,0,0,0,0,0,0,0,0,0,0,0,0,0,0,0,0,0,0,0,0,0,0,0,0,0,0,0,0,0,0,0,0,
0,0,0,0,0,0,0,0,0,0,0,0,0,0,0,0,0,0,0,0,0,0,0,0,0,0,0,0,0,0,0,0,0,0,0,0,0,0,0,0,0,0,0,0,0,0,0,0,0,0,0,0,0,0,0,0,0,0,0,0,
0,0,0,0,0,0,0,0,0,0,0,0,0,0,0,0,0,0,0,0,0,0,0,0,0,0,0,0,0,0,0,0,0,0,0,0,0,0,0,0,0,0,0,0,0,0,0,0,0,0,0,0,0,0,0,0,0,0,0,0,
0,0,0,0,0,0,0,0,0,0,0,0,0,0,0,0,0,0,0,0,0,0,0,0,0,0,0,0,0,0,0,0,0,0,0,0,0,0,0,0,0,0,0,0,0,0,0,0,0,0,0,0,0,0,0,0,0,0,0,0,
0,0,0,0,0,0,0,0,0,0,0,0,0,0,0,0,0,0,0,0,0,0,0,0,0,0,0,0,0,0,0,0,0,0,0,0,0,0,0,0,0,0,0,0,0,0,0,0,0,0,0,0,0,0,0,0,0,0,0,0,
0,0,0,0,0,0,0,0,0,0,0,0,0,0,0,0,0,0,0,0,0,0,0,0,0,0,0,0,0,0,0,0,0,0,0,0,0,0,0,0,0,0,0,0,0,0,0,0,0,0,0,0,0,0,0,0,0,0,0,0,
0,0,0,0,0,0,0,0,0,0,0,0,0,0,0,0,0,0,0,0,0,0,0,0,0,0,0,0,0,0,0,0,0,0,0,0,0,0,0,0,0,0,0,0,0,0,0,0,0,0,0,0,0,0,0,0,0,0,0,0,
0,0,0,0,0,0,0,0,0,0,0,0,0,0,0,0,0,0,0,0,0,0,0,0,0,0,0,0,0,0,0,0,0,0,0,0,0,0,0,0,0,0,0,0,0,0,0,0,0,0,0,0,0,0,0,0,0,0,0,0,
0,0,0,0,0,0,0,0,0,0,0,0,0,0,0,0,0,0,0,0,0,0,0,0,0,0,0,0,0,0,0,0,0,0,0,0,0,0,0,0,0,0,0,0,0,0,0,0,0,0,0,0,0,0,0,0,0,0,0,0,
0,0,0,0,0,0,0,0,0,0,0,0,0,0,0,0,0,0,0,0,0,0,0,0,0,0,0,0,0,0,0,0,0,0,0,0,0,0,0,0,0,0,0,0,0,0,0,0,0,0,0,0,0,0,0,0,0,0,0,0,
0,0,0,0,0,0,0,0,0,0,0,0,0,0,0,0,0,0,0,0,0,0,0,0,0,0,0,0,0,0,0,0,0,0,0,0,0,0,0,0,0,0,0,0,0,0,0,0,0,0,0,0,0,0,0,0,0,0,0,0,
0,0,0,0,0,0,0,0,0,0,0,0,0,0,0,0,0,0,0,0,0,0,0,0,0,0,0,0,0,0,0,0,0,0,0,0,0,0,0,0,0,0,0,0,0,0,0,0,0,0,0,0,0,0,0,0,0,0,0,0,
0,0,0,0,0,0,0,0,0,0,0,0,0,0,0,0,0,0,0,0,0,0,0,0,0,0,0,0,0,0,0,0,0,0,0,0,0,0,0,0,0,0,0,0,0,0,0,0,0,0,0,0,0,0,0,0,0,0,0,0,
0,0,0,0,0,0,0,0,0,0,0,0,0,0,0,0,0,0,0,0,0,0,0,0,0,0,0,0,0,0,0,0,0,0,0,0,0,0,0,0,0,0,0,0,0,0,0,0,0,0,0,0,0,0,0,0,0,0,0,0,
0,0,0,0,0,0,0,0,0,0,0,0,0,0,0,0,0,0,0,0,0,0,0,0,0,0,0,0,0,0,0,0,0,0,0,0,0,0,0,0,0,0,0,0,0,0,0,0,0,0,0,0,0,0,0,0,0,0,0,0,
0,0,0,0,0,0,0,0,0,0,0,0,0,0,0,0,0,0,0,0,0,0,0,0,0,0,0,0,0,0,0,0,0,0,0,0,0,0,0,0,0,0,0,0,0,0,0,0,0,0,0,0,0,0,0,0,0,0,0,0,
0,0,0,0,0,0,0,0,0,0,0,0,0,0,0,0,0,0,0,0,0,0,0,0,0,0,0,0,0,0,0,0,0,0,0,0,0,0,0,0,0,0,0,0,0,0,0,0,0,0,0,0,0,0,0,0,0,0,0,0,
0,0,0,0,0,0,0,0,0,0,0,0,0,0,0,0,0,0,0,0,0,0,0,0,0,0,0,0,0,0,0,0,0,0,0,0,0,0,0,0,0,0,0,0,0,0,0,0,0,0,0,0,0,0,0,0,0,0,0,0,
0,0,0,0,0,0,0,0,0,0,0,0,0,0,0,0,0,0,0,0,0,0,0,0,0,0,0,0,0,0,0,0,0,0,0,0,0,0,0,0,0,0,0,0,0,0,0,0,0,0,0,0,0,0,0,0,0,0,0,0
</data>
 </layer>
 <layer id="3" name="Sky" width="60" height="60">
  <properties>
   <property name="draw_over_actors" type="bool" value="true"/>
  </properties>
  <data encoding="csv">
0,63,64,63,64,0,0,0,0,62,0,63,64,63,64,63,64,0,61,0,0,63,64,63,64,63,64,63,64,63,64,63,64,63,64,63,64,63,64,63,64,63,64,63,64,63,64,63,64,63,64,63,64,63,64,63,64,63,64,63,
93,0,61,0,0,0,0,0,0,0,0,0,63,64,0,0,0,0,0,0,0,0,0,0,0,0,0,0,0,0,0,0,0,0,0,0,0,0,0,0,0,0,0,0,0,0,0,0,63,64,63,64,63,64,63,64,63,64,63,64,
0,0,0,0,0,0,0,0,0,0,0,0,0,63,64,0,0,0,0,0,0,0,0,0,0,0,0,0,0,0,0,0,0,0,0,0,0,0,0,0,0,0,0,0,0,0,0,0,61,0,0,63,64,63,64,63,64,63,64,63,
0,0,0,0,0,0,0,0,0,0,0,0,0,0,0,0,0,0,0,0,0,0,0,0,0,0,0,0,0,0,0,0,0,0,0,0,0,0,0,0,0,0,0,0,0,0,0,0,0,0,0,61,0,0,63,64,63,64,63,64,
0,0,0,0,0,0,0,0,0,0,0,0,0,0,0,0,0,0,0,0,0,0,0,0,0,0,0,0,0,0,0,0,0,0,0,0,0,0,0,0,0,0,0,0,0,0,0,0,0,0,0,0,0,0,0,0,0,63,64,63,
0,0,0,0,0,0,0,0,0,0,0,0,0,0,0,0,0,0,0,0,0,0,0,0,0,0,0,0,0,0,0,0,0,0,0,0,0,0,0,0,0,0,0,0,0,0,0,0,0,0,0,0,0,0,0,0,0,0,63,64,
0,0,0,0,0,0,0,0,0,0,0,0,0,0,0,0,63,64,0,0,0,0,0,0,0,0,0,0,0,0,0,0,0,0,0,0,0,0,0,0,0,0,0,0,0,0,0,0,0,0,0,0,63,64,0,0,0,0,0,61,
0,0,0,0,0,0,0,0,0,0,0,0,0,0,0,0,0,0,0,0,0,0,0,0,0,0,0,0,0,0,0,0,0,0,0,0,0,0,0,0,0,0,0,0,0,0,0,0,0,0,0,0,0,0,0,0,0,0,0,0,
0,0,0,0,0,0,0,0,0,0,0,0,0,0,0,0,0,0,61,0,0,0,0,0,0,0,0,0,0,0,0,0,0,0,0,0,0,0,0,0,0,0,0,0,0,0,0,0,0,0,0,0,0,0,0,0,63,64,0,0,
0,0,0,0,0,0,0,0,0,0,0,0,0,0,0,0,0,0,0,0,0,0,0,0,0,0,0,0,0,0,0,0,0,0,0,0,0,0,0,0,0,0,0,0,0,0,0,0,0,0,0,0,0,0,0,0,0,0,0,0,
63,64,62,0,0,0,0,0,0,0,0,0,0,0,0,0,0,0,0,0,0,0,0,0,0,0,0,0,0,0,0,0,0,0,0,0,0,0,0,0,0,0,0,0,0,0,0,0,0,0,0,0,0,0,0,0,0,0,0,0,
64,0,0,0,0,0,0,0,0,0,0,0,0,0,0,0,0,0,0,0,0,0,0,0,0,0,0,0,0,0,0,0,0,0,0,0,0,0,0,0,0,0,0,0,0,0,0,0,0,0,0,0,0,0,0,0,0,0,0,0,
63,64,0,0,0,0,0,0,0,0,0,0,0,0,0,0,0,0,0,0,0,0,0,0,0,0,0,0,0,0,0,0,0,0,0,0,0,0,0,0,0,0,0,0,0,0,0,0,0,0,0,0,0,0,0,0,0,0,0,63,
64,63,64,0,0,0,0,0,0,0,0,0,0,0,0,0,0,0,0,0,0,0,0,0,0,0,0,0,0,0,0,0,0,0,0,0,0,0,0,0,0,0,0,0,0,0,0,0,0,0,0,0,0,0,0,0,0,0,63,64,
63,64,0,0,0,0,0,0,0,0,0,0,0,0,0,0,0,0,0,0,0,0,0,0,0,0,0,0,0,0,0,0,0,0,0,0,0,0,0,0,0,0,0,0,0,0,0,0,0,0,0,0,0,0,0,0,0,0,0,63,
64,0,0,0,0,0,0,0,0,0,0,0,0,520,520,520,520,0,0,0,0,0,0,0,0,0,0,0,0,0,0,0,0,274,0,0,0,0,0,0,0,0,0,0,0,0,0,0,0,0,0,0,0,0,0,0,0,0,63,64,
63,64,0,0,0,0,0,0,0,0,0,0,0,145,145,145,145,0,0,0,0,0,0,0,0,0,0,0,0,0,0,0,0,658,0,0,0,0,0,0,0,0,63,64,0,0,0,0,0,0,0,0,0,0,0,0,0,0,0,63,
64,0,0,0,0,0,0,0,0,0,0,0,0,568,568,568,568,0,0,0,0,0,0,0,0,0,63,64,0,0,0,0,0,0,0,0,0,0,0,0,63,64,0,0,0,0,0,0,0,0,0,0,0,0,0,0,0,0,0,0,
0,61,0,0,0,0,0,0,0,0,0,0,0,518,518,518,518,0,0,0,0,0,0,0,0,0,0,0,0,0,0,0,0,0,0,0,0,0,0,0,0,0,0,0,0,0,0,0,0,0,0,0,0,0,0,0,0,0,0,0,
61,0,0,0,0,0,0,0,0,0,0,0,0,0,0,0,0,0,0,0,0,0,0,0,0,0,0,0,0,0,0,0,0,0,0,0,0,0,0,0,0,0,0,0,0,0,0,0,0,0,0,0,0,0,0,0,0,0,0,0,
0,0,0,0,0,0,0,0,0,0,0,0,0,0,0,0,0,0,0,0,0,0,0,0,63,64,0,0,0,0,0,0,0,0,0,0,0,0,0,0,0,0,0,0,0,0,0,0,0,0,0,0,0,0,0,0,0,0,63,64,
0,0,0,0,0,0,0,0,0,0,0,0,0,0,0,0,0,0,0,0,0,0,0,0,0,0,0,0,0,0,0,0,0,0,0,0,0,0,0,0,0,0,0,0,0,0,0,0,0,0,0,0,0,0,0,0,0,0,0,63,
0,0,0,0,0,0,0,0,0,0,0,0,0,0,0,0,0,0,0,0,0,0,0,0,0,0,0,0,0,0,0,0,0,0,0,0,0,0,0,0,0,0,0,0,0,0,0,0,0,0,0,0,0,0,0,0,0,0,61,0,
0,0,0,0,0,0,0,0,0,0,0,0,0,0,0,0,0,0,0,0,0,0,0,0,0,0,0,0,0,0,0,0,0,0,0,0,0,0,0,0,0,0,0,0,0,0,0,0,0,0,0,0,0,0,0,0,0,0,0,0,
0,0,0,0,0,0,703,0,0,0,0,0,0,0,0,0,0,0,0,0,0,0,0,0,0,0,0,0,0,0,0,0,0,0,0,0,0,0,0,0,0,0,0,0,0,0,0,0,0,0,0,0,0,0,0,0,0,0,0,0,
64,0,0,0,0,0,0,0,0,0,0,0,0,0,0,0,0,0,0,0,0,0,0,0,0,0,0,0,0,0,0,0,0,0,0,0,0,0,0,0,0,0,0,0,0,0,0,0,0,0,0,0,0,0,0,0,0,0,0,61,
63,64,0,0,0,0,0,0,0,0,0,0,0,0,0,0,0,0,0,0,0,0,0,0,0,0,0,0,0,0,0,0,0,0,0,0,0,0,0,0,0,0,0,0,0,0,0,0,0,0,0,0,0,0,0,0,0,0,0,0,
64,61,0,0,0,0,0,0,274,0,0,0,0,0,0,0,0,0,0,0,0,0,0,0,0,0,0,0,0,0,0,0,0,0,0,0,0,0,0,0,0,0,0,0,0,0,0,0,0,0,0,0,0,0,0,0,0,0,0,0,
61,0,0,0,0,0,0,0,658,0,0,0,0,0,0,0,0,0,0,0,0,0,0,0,0,0,0,0,0,0,0,0,0,0,0,0,0,0,0,0,0,0,0,0,0,0,0,0,0,0,0,0,0,0,0,0,0,0,63,64,
0,0,0,0,0,0,0,0,0,0,0,0,0,0,0,0,0,0,0,0,0,0,0,0,0,0,0,0,0,0,0,0,0,0,0,0,0,0,0,0,0,0,0,0,0,0,0,0,0,0,0,0,0,0,0,0,0,0,61,0,
64,0,0,0,0,0,0,0,0,0,0,61,0,0,0,0,0,0,0,0,0,0,0,0,0,0,0,0,0,0,0,0,0,0,0,0,0,0,0,0,0,0,0,0,0,0,0,0,0,0,0,0,0,0,0,0,0,0,0,0,
63,64,0,0,0,0,0,0,0,0,0,0,0,0,0,0,0,0,0,0,0,0,0,0,0,0,0,0,0,0,0,0,0,0,0,0,0,0,0,0,0,0,0,0,0,0,0,0,0,0,0,0,0,0,0,0,0,0,0,0,
61,0,0,0,0,0,0,0,0,0,0,0,0,0,0,0,0,0,0,0,0,274,0,0,0,0,0,0,0,0,0,0,0,0,0,0,0,0,0,0,0,0,0,0,0,0,0,0,0,0,0,0,0,0,0,0,0,0,0,0,
0,0,0,0,0,0,0,0,0,0,0,0,0,0,0,0,0,0,0,0,0,658,0,0,0,0,0,0,0,0,0,0,0,0,0,0,0,0,0,0,0,0,0,0,0,0,0,0,0,0,0,0,0,0,0,0,0,0,0,0,
0,0,0,0,0,0,63,64,0,63,64,0,0,0,0,0,0,0,0,0,0,0,0,0,0,0,0,0,0,0,0,0,0,0,0,0,0,0,0,0,0,0,0,0,0,0,0,0,0,0,0,0,0,0,0,0,0,0,63,64,
64,0,0,0,0,0,0,0,0,0,0,0,0,0,0,0,0,0,0,0,0,0,0,61,0,0,0,0,0,0,0,0,0,0,0,0,0,0,0,0,0,0,0,0,0,0,0,0,0,0,0,0,0,0,0,0,0,0,0,63,
63,64,0,0,0,0,0,0,0,0,0,0,0,0,0,0,0,0,0,0,0,0,0,0,0,0,0,0,0,0,0,0,0,0,0,0,0,0,0,0,0,0,0,0,0,0,0,0,0,0,0,0,0,0,0,0,0,0,63,64,
64,0,0,0,0,0,0,0,0,0,0,0,0,0,0,0,0,0,0,0,0,0,0,0,0,0,0,0,0,0,0,0,0,0,0,0,0,0,0,0,0,0,0,0,0,0,0,0,0,0,0,0,0,0,0,0,0,0,0,63,
63,64,0,0,0,0,0,0,0,0,0,0,0,0,0,0,0,0,0,0,0,0,0,0,0,0,0,0,0,0,0,0,0,0,0,0,0,0,0,0,0,0,0,0,0,0,0,0,63,64,63,64,63,64,63,64,0,0,63,64,
64,0,0,0,0,0,0,0,0,0,0,0,0,0,0,0,0,0,0,0,0,0,0,0,0,0,0,0,0,0,0,0,0,0,0,0,0,0,0,0,0,0,0,0,0,0,0,0,61,63,64,63,64,63,64,63,64,63,64,63,
63,64,0,0,0,63,64,0,0,0,0,0,0,0,0,0,0,0,0,0,0,0,0,0,0,0,0,0,0,0,0,0,0,0,0,0,0,0,0,0,0,0,0,0,0,0,0,0,63,64,63,64,63,64,63,64,63,64,63,64,
64,0,0,0,0,0,63,64,0,0,0,0,0,0,0,0,0,0,0,0,0,0,0,0,0,0,0,0,0,0,0,0,0,0,0,0,0,0,0,0,0,0,0,0,0,0,0,0,61,63,64,0,0,63,64,0,0,0,0,63,
0,0,0,0,0,0,61,0,0,0,0,0,0,0,0,0,0,0,0,0,0,0,0,0,0,0,0,0,0,0,0,0,0,0,0,0,0,0,0,0,0,0,0,0,0,0,0,0,63,64,0,0,0,0,0,62,0,0,0,0,
64,0,0,0,0,0,0,0,0,0,0,0,0,0,0,0,0,0,0,0,0,0,0,0,0,0,0,0,0,0,0,0,0,0,0,0,0,0,0,0,0,0,0,0,0,0,0,0,61,63,64,0,0,0,0,0,0,0,0,0,
0,0,0,0,0,0,0,0,0,0,0,61,0,0,0,0,0,0,0,0,0,0,63,64,0,0,0,0,0,0,0,0,0,0,0,0,0,0,0,0,0,0,0,0,0,0,0,0,63,64,0,0,0,0,0,0,0,0,62,0,
0,61,0,0,0,0,0,0,0,0,0,0,0,0,0,0,0,0,0,0,0,0,0,0,0,0,0,0,0,0,0,0,0,0,0,0,0,0,0,0,0,0,0,0,0,0,0,0,61,63,64,0,0,0,0,0,0,0,0,0,
0,0,0,0,0,0,0,0,0,63,64,0,0,0,0,0,0,0,0,0,0,63,64,0,0,0,0,0,0,0,0,0,0,0,0,0,0,0,0,0,0,0,0,0,0,0,0,0,63,64,0,0,0,0,0,0,0,0,0,0,
61,0,0,0,0,0,0,0,0,0,0,0,0,0,520,520,520,520,0,0,0,0,0,0,0,0,0,0,0,0,0,0,0,0,0,0,0,0,0,0,0,0,0,0,0,0,0,0,0,0,0,0,0,0,0,0,0,0,0,0,
63,64,0,0,0,0,0,0,0,0,0,0,0,0,145,145,145,145,0,0,0,0,0,0,0,0,0,0,0,0,0,0,0,0,0,0,0,0,0,0,0,0,0,0,0,0,0,0,0,0,0,0,0,0,0,0,0,0,0,0,
64,61,0,0,0,0,0,0,0,0,0,0,0,0,568,568,568,568,0,0,0,0,0,0,0,0,0,0,0,0,0,0,0,0,0,0,0,0,0,0,0,0,0,0,0,0,0,0,0,0,0,0,0,0,0,0,0,0,0,0,
63,64,63,64,63,64,0,0,0,0,0,0,0,0,518,518,518,518,0,0,0,0,0,0,0,0,0,0,0,0,0,61,63,64,63,64,63,64,63,64,63,64,63,64,63,64,0,0,0,0,0,0,0,0,0,0,0,0,0,0,
64,63,64,63,64,0,0,0,0,0,0,0,0,0,0,0,0,0,0,0,0,0,0,0,0,0,0,0,0,0,0,0,0,0,0,63,64,63,64,63,64,63,64,63,64,63,64,63,64,0,0,0,0,0,0,0,0,0,0,0,
63,64,0,0,0,0,0,0,0,0,0,0,0,0,0,0,0,0,0,0,0,0,0,0,0,0,0,0,0,0,0,0,0,0,0,0,63,64,63,64,63,64,63,64,63,64,62,0,0,0,0,0,0,0,0,0,0,0,0,0,
64,0,0,0,0,0,0,0,0,0,0,0,0,0,0,0,0,0,0,0,0,0,0,0,0,0,63,64,0,0,0,0,0,0,0,0,0,63,64,63,64,63,64,63,64,0,0,0,0,0,0,0,0,0,0,0,0,0,0,0,
63,64,0,0,0,0,0,0,0,0,0,0,0,0,0,0,0,0,0,0,0,0,0,0,0,0,0,0,0,0,0,0,0,0,0,0,63,64,63,64,63,64,63,64,0,0,0,0,0,63,64,0,0,0,0,0,0,0,0,0,
64,0,0,0,0,0,0,0,0,0,0,0,0,0,0,0,0,0,0,0,0,0,0,0,0,0,0,0,0,0,0,0,63,64,0,0,0,63,64,63,64,63,64,63,64,0,0,0,0,0,0,0,0,0,0,0,0,0,0,0,
63,64,0,0,0,0,0,0,0,0,0,0,0,0,0,0,0,0,0,0,0,0,0,0,0,0,0,0,0,0,0,0,0,0,0,0,63,64,63,64,63,64,63,64,0,0,0,0,0,0,0,0,0,0,0,0,0,0,0,0,
64,63,64,0,0,0,0,63,64,0,0,0,0,0,0,0,0,0,0,0,0,0,0,0,0,0,0,0,0,62,63,64,0,93,63,64,0,63,64,63,64,0,0,63,64,0,0,0,0,0,0,0,0,0,0,0,0,0,0,0,
63,64,63,64,63,64,61,0,63,64,63,64,63,64,0,0,0,0,0,0,0,0,0,0,63,64,0,63,64,63,64,63,64,63,64,63,64,62,63,64,63,64,63,64,63,64,63,64,63,64,0,0,0,0,0,0,0,0,0,0,
0,63,64,62,0,0,0,93,0,63,64,0,0,63,64,0,0,0,0,63,64,0,0,63,64,0,61,0,63,64,63,64,63,64,63,64,63,64,61,63,64,63,64,63,64,63,64,63,64,63,64,0,0,0,0,0,0,0,0,0
</data>
 </layer>
 <layer id="4" name="Sky Detail" width="60" height="60">
  <properties>
   <property name="draw_over_actors" type="bool" value="true"/>
  </properties>
  <data encoding="csv">
0,0,0,0,0,0,0,0,0,0,0,0,0,0,0,0,0,0,0,0,0,0,0,0,0,0,0,0,0,0,0,0,0,0,0,0,0,0,0,0,0,0,0,0,0,0,0,0,0,0,0,0,0,0,0,0,0,0,0,0,
0,0,0,0,0,0,0,0,0,0,0,0,0,0,0,0,0,0,0,0,0,0,0,0,0,0,0,0,0,0,0,0,0,0,0,0,0,0,0,0,0,0,0,0,0,0,0,0,0,0,0,0,0,0,0,0,0,0,0,0,
0,0,0,0,0,0,0,0,0,0,0,0,0,0,0,0,0,0,0,0,0,0,0,0,0,0,0,0,0,0,0,0,0,0,0,0,0,0,0,0,0,0,0,0,0,0,0,0,0,0,0,0,0,0,0,0,0,0,0,0,
0,0,0,0,0,0,0,0,0,0,0,0,0,0,0,0,0,0,0,0,0,0,0,0,0,0,0,0,0,0,0,0,0,0,0,0,0,0,0,0,0,0,0,0,0,0,0,0,0,0,0,0,0,0,0,0,0,0,0,0,
0,0,0,0,0,0,0,0,0,0,0,0,0,0,0,0,0,0,0,0,0,0,0,0,0,0,0,0,0,0,0,0,0,0,0,0,0,0,0,0,0,0,0,0,0,0,0,0,0,0,0,0,0,0,0,0,0,0,0,0,
0,0,0,0,0,0,0,0,0,0,0,0,0,0,0,0,0,0,0,0,0,0,0,0,0,0,0,0,0,0,0,0,0,0,0,0,0,0,0,0,0,0,0,0,0,0,0,0,0,0,0,0,0,0,0,0,0,0,0,0,
0,0,0,0,0,0,0,0,0,0,0,0,0,0,0,0,0,0,0,0,0,0,0,0,0,0,0,0,0,0,0,0,0,0,0,0,0,0,0,0,0,0,0,0,0,0,0,0,0,0,0,0,0,0,0,0,0,0,0,0,
0,0,0,0,0,0,0,0,0,0,0,0,0,0,0,0,0,0,0,0,0,0,0,0,0,0,0,0,0,0,0,0,0,0,0,0,0,0,0,0,0,0,0,0,0,0,0,0,0,0,0,0,0,0,0,0,0,0,0,0,
0,0,0,0,0,0,0,0,0,0,0,0,0,0,0,0,0,0,0,0,0,0,0,0,0,0,0,0,0,0,0,0,0,0,0,0,0,0,0,0,0,0,0,0,0,0,0,0,0,0,0,0,0,0,0,0,0,0,0,0,
0,0,0,0,0,0,0,0,0,0,0,0,0,0,0,0,0,0,0,0,0,0,0,0,0,0,0,0,0,0,0,0,0,0,0,0,0,0,0,0,0,0,0,0,0,0,0,0,0,0,0,0,0,0,0,0,0,0,0,0,
0,0,0,0,0,0,0,0,0,0,0,0,0,0,0,0,0,0,0,0,0,0,0,0,0,0,0,0,0,0,0,0,0,0,0,0,0,0,0,0,0,0,0,0,0,0,0,0,0,0,0,0,0,0,0,0,0,0,0,0,
0,0,0,0,0,0,0,0,0,0,0,0,0,0,0,0,0,0,0,0,0,0,0,0,0,0,0,0,0,0,0,0,0,0,0,0,0,0,0,0,0,0,0,0,0,0,0,0,0,0,0,0,0,0,0,0,0,0,0,0,
0,0,0,0,0,0,0,0,0,0,0,0,0,0,0,0,0,0,0,0,0,0,0,0,0,0,0,0,0,0,0,0,0,0,0,0,0,0,0,0,0,0,0,0,0,0,0,0,0,0,0,0,0,0,0,0,0,0,0,0,
0,0,0,0,0,0,0,0,0,0,0,0,0,0,0,0,0,0,0,0,0,0,0,0,0,0,0,0,0,0,0,0,0,0,0,0,0,0,0,0,0,0,0,0,0,0,0,0,0,0,0,0,0,0,0,0,0,0,0,0,
0,0,0,0,0,0,0,0,0,0,0,0,0,0,0,0,0,0,0,0,0,0,0,0,0,0,0,0,0,0,0,0,0,0,0,0,0,0,0,0,0,0,0,0,0,0,0,0,0,0,0,0,0,0,0,0,0,0,0,0,
0,0,0,0,0,0,0,0,0,0,0,0,0,0,0,0,0,0,0,0,0,0,0,0,0,0,0,0,0,0,0,0,0,0,0,0,0,0,0,0,0,0,0,0,0,0,0,0,0,0,0,0,0,0,0,0,0,0,0,0,
0,0,0,0,0,0,0,0,0,0,0,0,0,0,0,0,0,0,0,0,0,0,0,0,0,0,0,0,0,0,0,0,0,0,0,0,0,0,0,0,0,0,0,0,0,0,0,0,0,0,0,0,0,0,0,0,0,0,0,0,
0,0,0,0,0,0,0,0,0,0,0,0,0,0,0,0,0,0,0,0,0,0,0,0,0,0,0,0,0,0,0,0,0,0,0,0,0,0,0,0,0,0,0,0,0,0,0,0,0,0,0,0,0,0,0,0,0,0,0,0,
0,0,0,0,0,0,0,0,0,0,0,0,0,0,0,0,0,0,0,0,0,0,0,0,0,0,0,0,0,0,0,0,0,0,0,0,0,0,0,0,0,0,0,0,0,0,0,0,0,0,0,0,0,0,0,0,0,0,0,0,
0,0,0,0,0,0,0,0,0,0,0,0,0,0,0,0,0,0,0,0,0,0,0,0,0,0,0,0,0,0,0,0,0,0,0,0,0,0,0,0,0,0,0,0,0,0,0,0,0,0,0,0,0,0,0,0,0,0,0,0,
0,0,0,0,0,0,0,0,0,0,0,0,0,0,0,0,0,0,0,0,0,0,0,0,0,0,0,0,0,0,0,0,0,0,0,0,0,0,0,0,0,0,0,0,0,0,0,0,0,0,0,0,0,0,0,0,0,0,0,0,
0,0,0,0,0,0,0,0,0,0,0,0,0,0,0,0,0,0,0,0,0,0,0,0,0,0,0,0,0,0,0,0,0,0,0,0,0,0,0,0,0,0,0,0,0,0,0,0,0,0,0,0,0,0,0,0,0,0,0,0,
0,0,0,0,0,0,0,0,0,0,0,0,0,0,0,0,0,0,0,0,0,0,0,0,0,0,0,0,0,0,0,0,0,0,0,0,0,0,0,0,0,0,0,0,0,0,0,0,0,0,0,0,0,0,0,0,0,0,0,0,
0,0,0,0,0,0,0,0,0,0,0,0,0,0,0,0,0,0,0,0,0,0,0,0,0,0,0,0,0,0,0,0,0,0,0,0,0,0,0,0,0,0,0,0,0,0,0,0,0,0,0,0,0,0,0,0,0,0,0,0,
0,0,0,0,0,0,0,0,0,0,0,0,0,0,0,0,0,0,0,0,0,0,0,0,0,0,0,0,0,0,0,0,0,0,0,0,0,0,0,0,0,0,0,0,0,0,0,0,0,0,0,0,0,0,0,0,0,0,0,0,
0,0,0,0,0,0,0,0,0,0,0,0,0,0,0,0,0,0,0,0,0,0,0,0,0,0,0,0,0,0,0,0,0,0,0,0,0,0,0,0,0,0,0,0,0,0,0,0,0,0,0,0,0,0,0,0,0,0,0,0,
0,0,0,0,0,0,0,0,0,0,0,0,0,0,0,0,0,0,0,0,0,0,0,0,0,0,0,0,0,0,0,0,0,0,0,0,0,0,0,0,0,0,0,0,0,0,0,0,0,0,0,0,0,0,0,0,0,0,0,0,
0,0,0,0,0,0,0,0,0,0,0,0,0,0,0,0,0,0,0,0,0,0,0,0,0,0,0,0,0,0,0,0,0,0,0,0,0,0,0,0,0,0,0,0,0,0,0,0,0,0,0,0,0,0,0,0,0,0,0,0,
0,0,0,0,0,0,0,0,144,0,0,0,0,0,0,0,0,0,0,0,0,0,0,0,0,0,0,0,0,0,0,0,0,0,0,0,0,0,0,0,0,0,0,0,0,0,0,0,0,0,0,0,0,0,0,0,0,0,0,0,
0,0,0,0,0,0,0,0,0,0,0,0,0,0,0,0,0,0,0,0,0,0,0,0,0,0,0,0,0,0,0,0,0,0,0,0,0,0,0,0,0,0,0,0,0,0,0,0,0,0,0,0,0,0,0,0,0,0,0,0,
0,0,0,0,0,0,0,0,0,0,0,0,0,0,0,0,0,0,0,0,0,0,0,0,0,0,0,0,0,0,0,0,0,0,0,0,0,0,0,0,0,0,0,0,0,0,0,0,0,0,0,0,0,0,0,0,0,0,0,0,
0,0,0,0,0,0,0,0,0,0,0,0,0,0,0,0,0,0,0,0,0,0,0,0,0,0,0,0,0,0,0,0,0,0,0,0,0,0,0,0,0,0,0,0,0,0,0,0,0,0,0,0,0,0,0,0,0,0,0,0,
0,0,0,0,0,0,0,0,0,0,0,0,0,0,0,0,0,0,0,0,0,0,0,0,0,0,0,0,0,0,0,0,0,0,0,0,0,0,0,0,0,0,0,0,0,0,0,0,0,0,0,0,0,0,0,0,0,0,0,0,
0,0,0,0,0,0,0,0,0,0,0,0,0,0,0,0,0,0,0,0,0,0,0,0,0,0,0,0,0,0,0,0,0,0,0,0,0,0,0,0,0,0,0,0,0,0,0,0,0,0,0,0,0,0,0,0,0,0,0,0,
0,0,0,0,0,0,0,0,0,0,0,0,0,0,0,0,0,0,0,0,0,0,0,0,0,0,0,0,0,0,0,0,0,0,0,0,0,0,0,0,0,0,0,0,0,0,0,0,0,0,0,0,0,0,0,0,0,0,0,0,
0,0,0,0,0,0,0,0,0,0,0,0,0,0,0,0,0,0,0,0,0,0,0,0,0,0,0,0,0,0,0,0,0,0,0,0,0,0,0,0,0,0,0,0,0,0,0,0,0,0,0,0,0,0,0,0,0,0,0,0,
0,0,0,0,0,0,0,0,0,0,0,0,0,0,0,0,0,0,0,0,0,0,0,0,0,0,0,0,0,0,0,0,0,0,0,0,0,0,0,0,0,0,0,0,0,0,0,0,0,0,0,0,0,0,0,0,0,0,0,0,
0,0,0,0,0,0,0,0,0,0,0,0,0,0,0,0,0,0,0,0,0,0,0,0,0,0,0,0,0,0,0,0,0,0,0,0,0,0,0,0,0,0,0,0,0,0,0,0,0,0,0,0,0,0,0,0,0,0,0,0,
0,0,0,0,0,0,0,0,0,0,0,0,0,0,0,0,0,0,0,0,0,0,0,0,0,0,0,0,0,0,0,0,0,0,0,0,0,0,0,0,0,0,0,0,0,0,0,0,0,0,0,0,0,0,0,0,0,0,0,0,
0,0,0,0,0,0,0,0,0,0,0,0,0,0,0,0,0,0,0,0,0,0,0,0,0,0,0,0,0,0,0,0,0,0,0,0,0,0,0,0,0,0,0,0,0,0,0,0,0,0,0,0,0,0,0,0,0,0,0,0,
0,0,0,0,0,0,0,0,0,0,0,0,0,0,0,0,0,0,0,0,0,0,0,0,0,0,0,0,0,0,0,0,0,0,0,0,0,0,0,0,0,0,0,0,0,0,0,0,0,0,0,0,0,0,0,0,0,0,0,0,
0,0,0,0,0,0,0,0,0,0,0,0,0,0,0,0,0,0,0,0,0,0,0,0,0,0,0,0,0,0,0,0,0,0,0,0,0,0,0,0,0,0,0,0,0,0,0,0,0,0,0,0,0,0,0,0,0,0,0,0,
0,0,0,0,0,0,0,0,0,0,0,0,0,0,0,0,0,0,0,0,0,0,0,0,0,0,0,0,0,0,0,0,0,0,0,0,0,0,0,0,0,0,0,0,0,0,0,0,0,0,0,0,0,0,0,0,0,0,0,0,
0,0,0,0,0,0,0,0,0,0,0,0,0,0,0,0,0,0,0,0,0,0,0,0,0,0,0,0,0,0,0,0,0,0,0,0,0,0,0,0,0,0,0,0,0,0,0,0,0,0,0,0,0,0,0,0,0,0,0,0,
0,0,0,0,0,0,0,0,0,0,0,0,0,0,0,0,0,0,0,0,0,0,0,0,0,0,0,0,0,0,0,0,0,0,0,0,0,0,0,0,0,0,0,0,0,0,0,0,0,0,0,0,0,0,0,0,0,0,0,0,
0,0,0,0,0,0,0,0,0,0,0,0,0,0,0,0,0,0,0,0,0,0,0,0,0,0,0,0,0,0,0,0,0,0,0,0,0,0,0,0,0,0,0,0,0,0,0,0,0,0,0,0,0,0,0,0,0,0,0,0,
0,0,0,0,0,0,0,0,0,0,0,0,0,0,0,0,0,0,0,0,0,0,0,0,0,0,0,0,0,0,0,0,0,0,0,0,0,0,0,0,0,0,0,0,0,0,0,0,0,0,0,0,0,0,0,0,0,0,0,0,
0,0,0,0,0,0,0,0,0,0,0,0,0,0,0,0,0,0,0,0,0,0,0,0,0,0,0,0,0,0,0,0,0,0,0,0,0,0,0,0,0,0,0,0,0,0,0,0,0,0,0,0,0,0,0,0,0,0,0,0,
0,0,0,0,0,0,0,0,0,0,0,0,0,0,0,0,0,0,0,0,0,0,0,0,0,0,0,0,0,0,0,0,0,0,0,0,0,0,0,0,0,0,0,0,0,0,0,0,0,0,0,0,0,0,0,0,0,0,0,0,
0,0,0,0,0,0,0,0,0,0,0,0,0,0,0,0,0,0,0,0,0,0,0,0,0,0,0,0,0,0,0,0,0,0,0,0,0,0,0,0,0,0,0,0,0,0,0,0,0,0,0,0,0,0,0,0,0,0,0,0,
0,0,0,0,0,0,0,0,0,0,0,0,0,0,0,158,159,0,0,0,0,0,0,0,0,0,0,0,0,0,0,0,0,0,0,0,0,0,0,0,0,0,0,0,0,0,0,0,0,0,0,0,0,0,0,0,0,0,0,0,
0,0,0,0,0,0,0,0,0,0,0,0,0,0,0,0,0,0,0,0,0,0,0,0,0,0,0,0,0,0,0,0,0,0,0,0,0,0,0,0,0,0,0,0,0,0,0,0,0,0,0,0,0,0,0,0,0,0,0,0,
0,0,0,0,0,0,0,0,0,0,0,0,0,0,0,0,0,0,0,0,0,0,0,0,0,0,0,0,0,0,0,0,0,0,0,0,0,0,0,0,0,0,0,0,0,0,0,0,0,0,0,0,0,0,0,0,0,0,0,0,
0,0,0,0,0,0,0,0,0,0,0,0,0,0,0,0,0,0,0,0,0,0,0,0,0,0,0,0,0,0,0,0,0,0,0,0,0,0,0,0,0,0,0,0,0,0,0,0,0,0,0,0,0,0,0,0,0,0,0,0,
0,0,0,0,0,0,0,0,0,0,0,0,0,0,0,0,0,0,0,0,0,0,0,0,0,0,0,0,0,0,0,0,0,0,0,0,0,0,0,0,0,0,0,0,0,0,0,0,0,0,0,0,0,0,0,0,0,0,0,0,
0,0,0,0,0,0,0,0,0,0,0,0,0,0,0,0,0,0,0,0,0,0,0,0,0,0,0,0,0,0,0,0,0,0,0,0,0,0,0,0,0,0,0,0,0,0,0,0,0,0,0,0,0,0,0,0,0,0,0,0,
0,0,0,0,0,0,0,0,0,0,0,0,0,0,0,0,0,0,0,0,0,0,0,0,0,0,0,0,0,0,0,0,0,0,0,0,0,0,0,0,0,0,0,0,0,0,0,0,0,0,0,0,0,0,0,0,0,0,0,0,
0,0,0,0,0,0,0,0,0,0,0,0,0,0,0,0,0,0,0,0,0,0,0,0,0,0,0,0,0,0,0,0,0,0,0,0,0,0,0,0,0,0,0,0,0,0,0,0,0,0,0,0,0,0,0,0,0,0,0,0,
0,0,0,0,0,0,0,0,0,0,0,0,0,0,0,0,0,0,0,0,0,0,0,0,0,0,0,0,0,0,0,0,0,0,0,0,0,0,0,0,0,0,0,0,0,0,0,0,0,0,0,0,0,0,0,0,0,0,0,0,
0,0,0,0,0,0,0,0,0,0,0,0,0,0,0,0,0,0,0,0,0,0,0,0,0,0,0,0,0,0,0,0,0,0,0,0,0,0,0,0,0,0,0,0,0,0,0,0,0,0,0,0,0,0,0,0,0,0,0,0
</data>
 </layer>
 <layer id="7" name="Meta" width="60" height="60" visible="0">
  <data encoding="csv">
769,769,769,769,769,769,769,769,769,769,769,769,769,769,769,769,769,769,769,769,769,769,769,769,769,769,769,769,769,769,769,769,769,769,769,769,769,769,769,769,769,769,769,769,769,769,769,769,769,769,769,769,769,769,769,769,769,769,769,769,
769,769,769,769,769,769,0,0,0,769,0,769,769,769,769,769,769,769,769,0,0,769,769,769,769,769,769,769,769,769,769,769,769,769,769,769,769,769,769,769,769,769,769,769,769,769,769,769,769,769,769,769,769,769,769,769,769,769,769,769,
0,0,769,0,0,0,0,0,0,0,0,0,769,769,769,769,0,0,0,0,0,0,769,769,769,769,769,769,769,769,769,769,769,769,769,769,769,769,769,769,769,769,769,769,769,769,769,769,769,769,769,769,769,769,769,769,769,769,769,769,
0,0,0,0,0,0,0,0,0,0,0,0,0,769,769,0,0,0,0,0,0,0,769,769,769,769,769,769,769,769,769,769,769,769,769,769,769,769,769,769,769,769,769,769,769,769,769,769,769,769,769,769,769,769,769,769,769,769,769,769,
0,0,0,0,0,0,0,0,0,0,0,0,0,0,0,0,0,0,0,0,0,0,769,769,769,769,769,769,769,769,769,769,769,769,769,769,769,769,769,769,769,769,769,769,769,769,769,769,769,769,769,769,769,769,769,769,769,769,769,769,
0,0,0,0,0,0,0,0,0,0,0,0,0,0,0,0,0,0,0,0,0,0,769,769,769,769,769,769,769,769,769,769,769,769,769,769,769,769,769,769,769,769,769,769,769,769,769,769,769,769,769,769,769,769,769,769,769,769,769,769,
0,0,0,0,0,0,0,0,0,0,0,0,0,0,0,0,0,0,0,0,0,0,769,769,769,769,769,769,769,769,769,769,769,769,769,769,769,769,769,769,769,769,769,769,769,769,769,769,769,769,769,769,769,769,769,769,769,769,769,769,
0,0,0,0,0,0,0,0,0,0,0,0,0,0,0,0,769,769,0,0,0,0,769,769,769,769,769,769,769,769,769,769,769,769,769,769,769,769,769,769,769,769,769,769,769,769,769,769,769,769,769,769,769,769,769,769,769,769,769,769,
0,0,0,0,0,0,0,0,0,0,0,0,0,0,0,0,0,0,0,0,0,0,769,769,769,769,769,769,769,769,769,769,769,769,769,769,769,769,769,769,769,769,769,769,769,769,769,769,769,769,769,769,769,769,769,769,769,769,769,769,
0,0,0,0,0,0,0,0,0,0,0,0,0,0,0,0,0,0,769,0,0,0,769,769,769,769,0,769,769,0,769,0,0,0,0,0,769,769,769,769,769,769,769,769,769,769,769,769,769,769,769,769,769,769,769,769,769,769,769,769,
0,0,0,0,0,0,0,0,0,0,0,0,0,0,0,0,0,0,0,0,0,0,769,769,769,769,0,0,0,0,769,0,0,0,0,0,769,0,0,0,0,0,0,0,769,769,769,769,769,769,769,769,769,769,769,769,769,769,769,769,
769,769,769,0,0,0,0,0,0,0,0,0,0,0,0,0,0,0,0,0,0,0,769,769,769,769,0,0,0,0,0,0,0,769,0,0,0,0,0,0,0,0,0,0,769,769,769,769,769,769,769,769,769,769,769,769,769,769,769,769,
769,0,0,0,0,0,0,0,0,0,0,0,0,0,0,0,0,0,0,0,0,0,769,769,769,769,0,0,0,0,769,0,0,0,0,0,0,0,0,0,0,0,0,0,769,769,769,769,769,769,769,769,769,769,769,769,769,769,769,769,
769,769,0,0,0,0,0,0,0,0,0,0,0,0,0,0,0,0,0,0,0,0,769,769,769,769,769,769,769,769,769,0,0,0,0,0,769,769,769,769,769,769,769,769,769,769,769,769,769,769,769,769,769,769,769,769,769,769,769,769,
769,769,769,0,0,0,0,0,0,0,0,0,0,0,0,0,0,0,0,0,0,0,769,769,769,769,769,769,769,769,769,0,0,0,0,0,769,769,769,769,769,769,769,769,769,769,769,769,769,769,769,769,769,769,769,769,769,769,769,769,
769,769,769,769,769,769,769,769,769,769,769,769,769,770,770,770,770,769,769,769,769,769,769,769,769,769,769,769,769,769,769,769,769,0,769,769,769,769,769,769,769,769,769,769,769,769,769,769,769,769,769,769,769,769,769,769,769,769,769,769,
769,769,769,769,769,769,769,769,769,769,769,769,769,770,770,770,770,769,769,769,769,769,769,769,769,769,769,769,769,769,769,769,769,0,769,769,769,769,769,769,769,769,769,769,769,769,769,769,769,769,769,769,769,769,769,769,769,769,769,769,
769,769,769,769,769,769,769,769,769,769,769,769,769,0,0,0,0,769,769,769,769,769,769,769,769,769,769,769,769,769,769,769,769,0,769,769,769,769,769,769,769,769,769,769,769,769,769,769,769,769,769,769,769,769,769,769,769,769,769,769,
769,769,769,769,769,769,769,769,769,769,769,769,769,0,0,0,0,769,769,769,769,769,769,769,769,769,769,769,769,769,769,769,769,0,769,769,769,769,769,769,769,769,769,769,769,769,769,769,769,769,769,769,769,769,769,769,769,769,769,769,
769,769,769,769,769,769,769,769,769,769,769,769,769,0,0,0,0,769,769,769,769,769,769,769,769,769,769,769,769,769,769,769,0,0,0,0,769,769,769,769,769,769,769,769,769,769,0,0,769,769,0,0,0,0,0,769,769,769,769,769,
769,769,769,769,769,769,769,769,769,769,769,769,769,0,0,0,0,769,769,769,769,769,769,769,769,769,769,769,769,769,769,769,0,0,0,769,769,769,769,769,769,769,769,769,769,769,0,0,0,0,0,0,0,0,0,769,769,769,769,769,
769,769,769,769,769,769,769,769,769,769,769,769,0,0,0,0,0,0,0,769,769,769,0,0,769,769,0,0,0,0,0,769,0,0,0,769,0,0,0,0,0,0,0,0,0,0,0,0,0,0,0,0,0,0,0,769,769,769,769,769,
769,769,769,769,769,769,769,769,769,769,769,769,769,0,0,0,0,0,0,0,0,0,0,0,0,0,0,0,0,0,0,0,0,0,0,0,0,0,0,0,0,0,0,0,0,0,0,0,0,0,0,0,0,0,0,769,769,769,769,769,
769,769,769,769,769,769,769,0,0,0,769,0,0,0,0,0,0,0,0,0,0,0,0,0,0,0,0,0,0,0,0,0,0,0,0,0,0,0,0,0,0,0,0,0,0,0,0,0,0,0,0,0,0,0,0,769,769,769,769,769,
769,769,769,769,769,769,769,769,769,769,769,0,769,0,0,0,0,0,0,0,0,0,0,0,0,0,0,0,0,0,0,0,0,0,0,0,0,0,0,0,0,0,0,0,0,0,0,0,0,0,0,0,0,0,0,769,769,769,769,769,
769,769,769,769,769,769,769,0,0,0,0,0,0,0,0,0,0,0,769,769,769,769,769,769,769,769,769,769,769,769,769,769,769,769,769,769,0,0,0,0,0,0,0,0,0,0,0,0,0,0,0,0,0,0,0,769,769,769,769,769,
769,769,769,769,769,769,0,0,0,0,0,0,769,0,0,0,0,769,769,769,769,769,769,769,769,769,769,769,769,769,769,769,769,769,769,769,0,0,0,0,0,0,0,0,0,0,0,0,0,0,0,0,0,0,0,769,769,769,769,769,
769,769,769,769,769,769,769,769,0,769,769,769,0,0,0,0,0,0,769,769,769,769,769,769,769,769,769,769,769,769,769,769,769,769,769,769,0,0,0,0,0,0,0,0,0,0,0,0,0,0,0,0,0,0,0,769,769,769,769,769,
769,769,769,769,769,769,769,769,0,769,769,769,769,0,0,0,0,769,769,769,769,769,769,769,769,769,769,769,769,769,769,769,769,769,769,769,0,0,0,0,0,0,0,0,0,0,0,0,0,0,0,0,0,0,0,769,769,769,769,769,
769,769,769,769,769,769,769,769,0,769,769,769,0,0,0,0,0,0,769,769,769,0,0,0,0,0,0,0,0,0,0,0,0,0,769,769,0,0,0,0,0,0,0,0,0,0,0,0,0,0,0,0,0,0,0,769,769,769,769,769,
769,769,769,769,769,769,769,769,0,769,769,769,769,0,0,0,0,0,769,0,0,0,0,0,0,0,0,0,0,0,0,769,769,769,769,769,0,0,0,0,0,0,0,0,0,0,0,0,0,0,0,0,0,0,0,769,769,769,769,769,
769,769,769,769,769,0,0,0,0,0,0,769,769,0,0,0,0,0,769,0,0,0,0,0,0,0,0,0,0,0,0,0,0,0,0,769,0,0,0,0,0,0,0,0,0,0,0,0,0,0,0,0,0,0,0,769,769,769,769,769,
769,769,769,769,769,0,0,0,0,0,769,769,769,0,0,0,0,0,769,769,769,0,769,769,769,0,0,0,0,0,0,0,0,0,0,769,0,0,0,0,0,0,0,0,0,0,0,0,0,0,0,0,0,0,0,769,769,769,769,769,
769,769,769,769,769,0,0,0,0,0,0,0,0,0,0,0,0,0,769,769,769,0,769,769,769,0,0,0,0,0,0,0,0,0,769,769,0,0,0,0,0,0,0,0,0,769,769,769,769,769,769,769,769,769,769,769,769,769,769,769,
769,769,769,769,769,769,0,0,0,0,0,0,0,0,0,0,0,0,769,769,769,0,769,769,769,0,0,0,0,0,0,0,0,0,769,769,0,0,0,0,0,0,0,0,0,769,769,769,769,769,769,769,769,769,769,769,769,769,769,769,
769,769,769,769,769,769,769,769,0,769,769,0,769,0,0,0,0,0,769,769,769,0,769,769,769,0,0,0,0,0,0,0,0,0,0,769,0,0,0,0,0,0,0,0,0,769,769,769,769,769,769,769,769,769,769,769,769,769,769,769,
769,769,769,769,769,769,769,769,769,769,769,769,769,0,0,0,0,0,0,0,0,0,0,769,769,0,0,769,0,0,0,769,0,0,0,769,0,0,0,0,0,0,0,0,0,769,769,769,769,769,769,769,769,769,769,769,769,769,769,769,
769,769,769,769,769,0,0,0,0,0,0,0,0,0,0,0,0,0,0,0,0,0,0,769,769,0,0,0,0,0,0,0,0,0,0,769,0,0,0,0,0,0,0,0,0,769,769,769,769,769,769,769,769,769,769,769,769,769,769,769,
769,769,769,769,769,0,0,0,0,0,0,0,0,0,0,0,0,0,0,0,0,0,0,0,769,0,0,0,0,0,0,0,0,0,0,769,0,0,0,0,0,0,0,0,0,769,769,769,769,769,769,769,769,769,769,769,769,769,769,769,
769,769,769,769,769,0,0,0,0,0,0,0,0,0,0,0,0,0,0,0,0,0,0,0,769,0,0,0,0,0,0,0,0,0,0,769,0,0,0,0,0,0,0,0,0,769,769,769,769,769,769,769,769,769,769,769,769,769,769,769,
769,769,769,769,769,0,0,0,0,0,0,0,0,0,0,769,0,0,0,0,0,0,0,0,769,0,0,769,0,0,0,769,0,0,0,769,0,0,0,0,0,0,0,0,0,769,769,769,769,769,769,769,769,769,769,769,769,769,769,769,
769,769,769,769,769,769,769,0,0,0,0,0,0,0,0,0,0,0,0,0,0,0,0,0,769,0,0,0,0,0,0,0,0,0,769,769,0,0,0,0,0,0,0,0,0,769,769,769,769,769,769,769,769,769,769,769,769,769,769,769,
769,769,769,769,769,769,769,769,0,0,0,0,0,0,0,0,0,0,0,0,0,0,769,769,769,769,0,0,0,0,0,0,0,0,769,769,0,0,0,0,0,0,0,0,0,769,769,769,769,769,769,769,769,769,769,769,769,769,769,769,
769,769,769,769,769,0,769,0,0,0,0,0,0,0,0,0,0,0,0,0,0,0,0,0,769,769,769,769,769,769,769,769,769,769,769,769,0,0,0,0,0,0,0,0,0,769,769,769,769,769,769,769,769,769,769,769,769,769,769,769,
769,769,769,769,769,0,0,0,0,0,0,0,0,0,0,0,0,0,0,0,0,0,0,0,769,769,769,769,769,769,769,769,769,769,769,769,0,0,0,0,0,0,0,0,0,769,769,769,769,769,769,769,769,769,769,769,769,769,769,769,
769,769,769,769,769,769,769,769,769,0,0,769,0,0,0,0,0,0,0,0,0,0,769,769,769,769,769,769,769,769,769,769,769,769,769,769,769,769,769,769,769,769,769,769,769,769,769,769,769,769,769,769,769,769,769,769,769,769,769,769,
769,769,769,769,769,769,769,769,769,0,0,0,0,0,0,0,0,0,0,0,0,0,0,769,769,769,769,769,769,769,769,769,769,769,769,769,769,769,769,769,769,769,769,769,769,769,769,769,769,769,769,769,769,769,769,769,769,769,769,769,
769,769,769,769,769,769,769,769,769,769,769,769,769,769,0,0,0,0,769,769,769,769,769,769,769,769,769,769,769,769,769,769,769,769,769,769,769,769,769,769,769,769,769,769,769,769,769,769,769,769,769,769,769,769,769,769,769,769,769,769,
769,769,769,769,769,769,769,769,769,769,769,769,769,769,0,0,0,0,769,769,769,769,769,769,769,769,769,769,769,769,769,769,769,769,769,769,769,769,769,769,769,769,769,769,769,769,769,769,769,769,769,769,769,769,769,769,769,769,769,769,
769,769,769,769,769,769,769,769,769,769,769,769,769,769,0,0,0,0,769,769,769,769,769,769,769,769,769,769,769,769,769,769,769,769,769,769,769,769,769,769,769,769,769,769,769,769,769,769,769,769,769,769,769,769,769,769,769,769,769,769,
769,769,769,769,769,769,769,769,769,769,769,769,769,769,0,0,0,0,769,769,769,769,769,769,769,769,769,769,769,769,769,769,769,769,769,769,769,769,769,769,769,769,769,769,769,769,769,769,769,769,769,769,769,769,769,769,769,769,769,769,
769,769,769,769,769,769,769,769,769,769,769,769,769,769,770,770,770,770,769,769,769,769,769,769,769,769,0,0,0,0,0,769,769,769,769,769,769,769,769,769,769,769,769,769,769,769,769,769,769,769,769,769,769,769,769,769,769,769,769,769,
769,769,769,769,769,769,769,769,769,769,769,769,769,769,770,770,770,770,769,769,769,769,769,769,769,769,0,0,0,0,0,0,0,0,0,769,769,769,769,769,769,769,769,769,769,769,769,769,769,769,769,769,769,769,769,769,769,769,769,769,
769,769,0,0,0,0,0,769,0,0,0,769,769,770,0,0,0,0,0,769,769,0,0,0,0,0,0,0,0,0,0,0,0,0,0,769,769,769,769,769,769,769,769,769,769,769,769,769,769,769,769,769,769,769,769,769,769,769,769,769,
769,769,769,0,0,0,0,0,0,0,0,0,0,770,0,0,0,0,0,770,0,0,0,0,0,0,769,769,0,0,0,0,0,0,0,0,0,769,769,769,769,769,769,769,769,769,769,769,769,769,769,769,769,769,769,769,769,769,769,769,
769,769,0,0,0,0,0,0,0,0,0,0,0,770,0,0,0,0,0,770,0,0,0,0,0,0,0,0,0,0,0,0,0,0,0,0,769,769,769,769,769,769,769,769,769,769,769,769,769,769,769,769,769,769,769,769,769,769,769,769,
769,0,0,0,0,0,0,0,0,0,0,0,0,770,0,0,0,0,0,770,0,0,0,0,0,0,0,0,0,0,0,0,769,769,0,0,0,769,769,769,769,769,769,769,769,769,769,769,769,769,769,769,769,769,769,769,769,769,769,769,
769,769,0,0,0,0,0,0,0,0,0,0,0,770,0,0,0,0,0,770,0,0,0,0,0,0,0,0,0,0,0,0,0,769,0,0,769,769,769,769,769,769,769,769,769,769,769,769,769,769,769,769,769,769,769,769,769,769,769,769,
769,769,769,0,0,0,0,769,769,0,0,0,0,770,0,0,0,0,0,770,0,0,0,0,0,0,0,0,0,769,769,769,0,0,769,769,769,769,769,769,769,769,769,769,769,769,769,769,769,769,769,769,769,769,769,769,769,769,769,769,
769,769,769,769,769,769,769,769,769,769,769,769,769,769,0,0,0,0,0,770,0,0,0,0,769,769,0,769,769,769,769,769,769,769,769,769,769,769,769,769,769,769,769,769,769,769,769,769,769,769,769,769,769,769,769,769,769,769,769,769
</data>
 </layer>
 <objectgroup id="8" name="Spawn Groups">
  <object id="1" name="NPC Spawn" type="spawn_area" x="64" y="96" width="608" height="352"/>
  <object id="4" name="NPC Spawn" type="spawn_area" x="64" y="1696" width="352" height="192"/>
  <object id="5" name="NPC Spawn" type="spawn_area" x="640" y="1632" width="544" height="288"/>
  <object id="8" name="Weapon Shop" type="shop" x="192" y="736" width="160" height="128"/>
 </objectgroup>
</map>
